( pcb2gcode 1.1.4 )

G94     ( Inches per minute feed rate. )
G20     ( Units == INCHES.             )
G90     ( Absolute coordinates.        )
S10000  ( RPM spindle speed.           )
M3      ( Spindle on clockwise.        )

G64 P0.00500 ( set maximum deviation from commanded toolpath )

G04 P0 ( dwell for no time -- G64 should not smooth over this point )
G00 Z0.19685 ( retract )

G00 X1.61700 Y1.27700 ( rapid move to begin. )
G01 Z-0.01969 F1.96850 ( plunge. )
G04 P0 ( dwell for no time -- G64 should not smooth over this point )
X1.61700 Y1.27700
X1.61600 Y1.27700
X1.61600 Y1.27500
X1.61500 Y1.27500
X1.61500 Y1.27400
X1.61400 Y1.27400
X1.61400 Y1.27100
X1.61300 Y1.27100
X1.61300 Y1.26600
X1.61200 Y1.26600
X1.61200 Y1.23500
X1.61300 Y1.23500
X1.61300 Y1.23000
X1.61400 Y1.23000
X1.61400 Y1.22700
X1.61500 Y1.22700
X1.61500 Y1.22600
X1.61600 Y1.22600
X1.61600 Y1.22400
X1.61700 Y1.22400
X1.61700 Y1.22300
X1.61800 Y1.22300
X1.61800 Y1.22200
X1.61900 Y1.22200
X1.61900 Y1.22000
X1.62000 Y1.22000
X1.62000 Y1.21900
X1.62200 Y1.21900
X1.62200 Y1.21800
X1.62300 Y1.21800
X1.62300 Y1.21700
X1.62500 Y1.21700
X1.62500 Y1.21600
X1.62700 Y1.21600
X1.62700 Y1.21500
X1.62800 Y1.21500
X1.62800 Y1.21400
X1.63300 Y1.21400
X1.63300 Y1.21300
X1.66600 Y1.21300
X1.66600 Y1.21400
X1.67100 Y1.21400
X1.67100 Y1.21500
X1.67200 Y1.21500
X1.67200 Y1.21600
X1.67400 Y1.21600
X1.67400 Y1.21700
X1.67600 Y1.21700
X1.67600 Y1.21800
X1.67700 Y1.21800
X1.67700 Y1.21900
X1.67900 Y1.21900
X1.67900 Y1.22000
X1.68000 Y1.22000
X1.68000 Y1.22200
X1.68100 Y1.22200
X1.68100 Y1.22300
X1.68200 Y1.22300
X1.68200 Y1.22400
X1.68300 Y1.22400
X1.68300 Y1.22600
X1.68400 Y1.22600
X1.68400 Y1.22700
X1.68500 Y1.22700
X1.68500 Y1.23000
X1.68600 Y1.23000
X1.68600 Y1.23500
X1.68700 Y1.23500
X1.68700 Y1.26600
X1.68600 Y1.26600
X1.68600 Y1.27100
X1.68500 Y1.27100
X1.68500 Y1.27400
X1.68400 Y1.27400
X1.68400 Y1.27500
X1.68300 Y1.27500
X1.68300 Y1.27700
X1.68200 Y1.27700
X1.68200 Y1.27800
X1.68100 Y1.27800
X1.68100 Y1.27900
X1.68000 Y1.27900
X1.68000 Y1.28100
X1.67900 Y1.28100
X1.67900 Y1.28200
X1.67700 Y1.28200
X1.67700 Y1.28300
X1.67600 Y1.28300
X1.67600 Y1.28400
X1.67400 Y1.28400
X1.67400 Y1.28500
X1.67200 Y1.28500
X1.67200 Y1.28600
X1.67100 Y1.28600
X1.67100 Y1.28700
X1.66600 Y1.28700
X1.66600 Y1.28800
X1.63300 Y1.28800
X1.63300 Y1.28700
X1.62800 Y1.28700
X1.62800 Y1.28600
X1.62700 Y1.28600
X1.62700 Y1.28500
X1.62500 Y1.28500
X1.62500 Y1.28400
X1.62300 Y1.28400
X1.62300 Y1.28300
X1.62200 Y1.28300
X1.62200 Y1.28200
X1.62000 Y1.28200
X1.62000 Y1.28100
X1.61900 Y1.28100
X1.61900 Y1.27900
X1.61800 Y1.27900
X1.61800 Y1.27800
X1.61700 Y1.27800
X1.61700 Y1.27700
G04 P0 ( dwell for no time -- G64 should not smooth over this point )
G00 Z0.19685 ( retract )

G00 X2.15900 Y1.23000 ( rapid move to begin. )
G01 Z-0.01969 F1.96850 ( plunge. )
G04 P0 ( dwell for no time -- G64 should not smooth over this point )
X2.15900 Y1.23000
X2.15900 Y1.16000
X2.24000 Y1.16000
X2.24000 Y1.24100
X2.15900 Y1.24100
X2.15900 Y1.23000
G04 P0 ( dwell for no time -- G64 should not smooth over this point )
G00 Z0.19685 ( retract )

G00 X2.06600 Y1.23000 ( rapid move to begin. )
G01 Z-0.01969 F1.96850 ( plunge. )
G04 P0 ( dwell for no time -- G64 should not smooth over this point )
X2.06600 Y1.23000
X2.06500 Y1.23000
X2.06500 Y1.22800
X2.06400 Y1.22800
X2.06400 Y1.22700
X2.06300 Y1.22700
X2.06300 Y1.22500
X2.06200 Y1.22500
X2.06200 Y1.22400
X2.06100 Y1.22400
X2.06100 Y1.21900
X2.06000 Y1.21900
X2.06000 Y1.21400
X2.05900 Y1.21400
X2.05900 Y1.18700
X2.06000 Y1.18700
X2.06000 Y1.18200
X2.06100 Y1.18200
X2.06100 Y1.17700
X2.06200 Y1.17700
X2.06200 Y1.17600
X2.06300 Y1.17600
X2.06300 Y1.17400
X2.06400 Y1.17400
X2.06400 Y1.17300
X2.06500 Y1.17300
X2.06500 Y1.17100
X2.06600 Y1.17100
X2.06600 Y1.17000
X2.06700 Y1.17000
X2.06700 Y1.16900
X2.06800 Y1.16900
X2.06800 Y1.16700
X2.07000 Y1.16700
X2.07000 Y1.16600
X2.07200 Y1.16600
X2.07200 Y1.16500
X2.07300 Y1.16500
X2.07300 Y1.16400
X2.07500 Y1.16400
X2.07500 Y1.16300
X2.07700 Y1.16300
X2.07700 Y1.16200
X2.08000 Y1.16200
X2.08000 Y1.16100
X2.08600 Y1.16100
X2.08600 Y1.16000
X2.11300 Y1.16000
X2.11300 Y1.16100
X2.11900 Y1.16100
X2.11900 Y1.16200
X2.12200 Y1.16200
X2.12200 Y1.16300
X2.12400 Y1.16300
X2.12400 Y1.16400
X2.12600 Y1.16400
X2.12600 Y1.16500
X2.12700 Y1.16500
X2.12700 Y1.16600
X2.12900 Y1.16600
X2.12900 Y1.16700
X2.13100 Y1.16700
X2.13100 Y1.16900
X2.13200 Y1.16900
X2.13200 Y1.17000
X2.13300 Y1.17000
X2.13300 Y1.17100
X2.13400 Y1.17100
X2.13400 Y1.17300
X2.13500 Y1.17300
X2.13500 Y1.17400
X2.13600 Y1.17400
X2.13600 Y1.17600
X2.13700 Y1.17600
X2.13700 Y1.17700
X2.13800 Y1.17700
X2.13800 Y1.18200
X2.13900 Y1.18200
X2.13900 Y1.18700
X2.14000 Y1.18700
X2.14000 Y1.21400
X2.13900 Y1.21400
X2.13900 Y1.21900
X2.13800 Y1.21900
X2.13800 Y1.22400
X2.13700 Y1.22400
X2.13700 Y1.22500
X2.13600 Y1.22500
X2.13600 Y1.22700
X2.13500 Y1.22700
X2.13500 Y1.22800
X2.13400 Y1.22800
X2.13400 Y1.23000
X2.13300 Y1.23000
X2.13300 Y1.23100
X2.13200 Y1.23100
X2.13200 Y1.23200
X2.13100 Y1.23200
X2.13100 Y1.23400
X2.12900 Y1.23400
X2.12900 Y1.23500
X2.12700 Y1.23500
X2.12700 Y1.23600
X2.12500 Y1.23600
X2.12500 Y1.23700
X2.12400 Y1.23700
X2.12400 Y1.23800
X2.12200 Y1.23800
X2.12200 Y1.23900
X2.11900 Y1.23900
X2.11900 Y1.24000
X2.11300 Y1.24000
X2.11300 Y1.24100
X2.08600 Y1.24100
X2.08600 Y1.24000
X2.08000 Y1.24000
X2.08000 Y1.23900
X2.07700 Y1.23900
X2.07700 Y1.23800
X2.07500 Y1.23800
X2.07500 Y1.23700
X2.07400 Y1.23700
X2.07400 Y1.23600
X2.07200 Y1.23600
X2.07200 Y1.23500
X2.07000 Y1.23500
X2.07000 Y1.23400
X2.06800 Y1.23400
X2.06800 Y1.23200
X2.06700 Y1.23200
X2.06700 Y1.23100
X2.06600 Y1.23100
X2.06600 Y1.23000
G04 P0 ( dwell for no time -- G64 should not smooth over this point )
G00 Z0.19685 ( retract )

G00 X0.06700 Y1.17700 ( rapid move to begin. )
G01 Z-0.01969 F1.96850 ( plunge. )
G04 P0 ( dwell for no time -- G64 should not smooth over this point )
X0.06700 Y1.17700
X0.06600 Y1.17700
X0.06600 Y1.17500
X0.06500 Y1.17500
X0.06500 Y1.17400
X0.06400 Y1.17400
X0.06400 Y1.17100
X0.06300 Y1.17100
X0.06300 Y1.16600
X0.06200 Y1.16600
X0.06200 Y1.13500
X0.06300 Y1.13500
X0.06300 Y1.13000
X0.06400 Y1.13000
X0.06400 Y1.12700
X0.06500 Y1.12700
X0.06500 Y1.12600
X0.06600 Y1.12600
X0.06600 Y1.12400
X0.06700 Y1.12400
X0.06700 Y1.12300
X0.06800 Y1.12300
X0.06800 Y1.12200
X0.06900 Y1.12200
X0.06900 Y1.12000
X0.07000 Y1.12000
X0.07000 Y1.11900
X0.07200 Y1.11900
X0.07200 Y1.11800
X0.07300 Y1.11800
X0.07300 Y1.11700
X0.07500 Y1.11700
X0.07500 Y1.11600
X0.07700 Y1.11600
X0.07700 Y1.11500
X0.07800 Y1.11500
X0.07800 Y1.11400
X0.08300 Y1.11400
X0.08300 Y1.11300
X0.11600 Y1.11300
X0.11600 Y1.11400
X0.12100 Y1.11400
X0.12100 Y1.11500
X0.12200 Y1.11500
X0.12200 Y1.11600
X0.12400 Y1.11600
X0.12400 Y1.11700
X0.12600 Y1.11700
X0.12600 Y1.11800
X0.12700 Y1.11800
X0.12700 Y1.11900
X0.12900 Y1.11900
X0.12900 Y1.12000
X0.13000 Y1.12000
X0.13000 Y1.12200
X0.13100 Y1.12200
X0.13100 Y1.12300
X0.13200 Y1.12300
X0.13200 Y1.12400
X0.13300 Y1.12400
X0.13300 Y1.12600
X0.13400 Y1.12600
X0.13400 Y1.12700
X0.13500 Y1.12700
X0.13500 Y1.13000
X0.13600 Y1.13000
X0.13600 Y1.13500
X0.13700 Y1.13500
X0.13700 Y1.16600
X0.13600 Y1.16600
X0.13600 Y1.17100
X0.13500 Y1.17100
X0.13500 Y1.17400
X0.13400 Y1.17400
X0.13400 Y1.17500
X0.13300 Y1.17500
X0.13300 Y1.17700
X0.13200 Y1.17700
X0.13200 Y1.17800
X0.13100 Y1.17800
X0.13100 Y1.17900
X0.13000 Y1.17900
X0.13000 Y1.18100
X0.12900 Y1.18100
X0.12900 Y1.18200
X0.12700 Y1.18200
X0.12700 Y1.18300
X0.12600 Y1.18300
X0.12600 Y1.18400
X0.12400 Y1.18400
X0.12400 Y1.18500
X0.12200 Y1.18500
X0.12200 Y1.18600
X0.12100 Y1.18600
X0.12100 Y1.18700
X0.11600 Y1.18700
X0.11600 Y1.18800
X0.08300 Y1.18800
X0.08300 Y1.18700
X0.07800 Y1.18700
X0.07800 Y1.18600
X0.07700 Y1.18600
X0.07700 Y1.18500
X0.07500 Y1.18500
X0.07500 Y1.18400
X0.07300 Y1.18400
X0.07300 Y1.18300
X0.07200 Y1.18300
X0.07200 Y1.18200
X0.07000 Y1.18200
X0.07000 Y1.18100
X0.06900 Y1.18100
X0.06900 Y1.17900
X0.06800 Y1.17900
X0.06800 Y1.17800
X0.06700 Y1.17800
X0.06700 Y1.17700
G04 P0 ( dwell for no time -- G64 should not smooth over this point )
G00 Z0.19685 ( retract )

G00 X2.15900 Y1.03000 ( rapid move to begin. )
G01 Z-0.01969 F1.96850 ( plunge. )
G04 P0 ( dwell for no time -- G64 should not smooth over this point )
X2.15900 Y1.03000
X2.15900 Y1.02300
X2.08600 Y1.02300
X2.08600 Y1.02200
X2.08300 Y1.02200
X2.08300 Y1.02100
X2.08100 Y1.02100
X2.08100 Y1.02000
X2.08000 Y1.02000
X2.08000 Y1.01900
X2.07900 Y1.01900
X2.07900 Y1.01800
X2.07800 Y1.01800
X2.07800 Y1.01700
X2.07700 Y1.01700
X2.07700 Y1.01600
X2.07600 Y1.01600
X2.07600 Y1.01500
X2.07500 Y1.01500
X2.07500 Y1.01400
X2.07400 Y1.01400
X2.07400 Y1.01300
X2.07300 Y1.01300
X2.07300 Y1.01200
X2.07200 Y1.01200
X2.07200 Y1.01100
X2.07100 Y1.01100
X2.07100 Y1.01000
X2.07000 Y1.01000
X2.07000 Y1.00900
X2.06900 Y1.00900
X2.06900 Y1.00800
X2.06800 Y1.00800
X2.06800 Y1.00700
X2.06700 Y1.00700
X2.06700 Y1.00600
X2.06600 Y1.00600
X2.06600 Y1.00500
X2.06500 Y1.00500
X2.06500 Y1.00400
X2.06400 Y1.00400
X2.06400 Y1.00300
X2.06300 Y1.00300
X2.06300 Y1.00200
X2.06200 Y1.00200
X2.06200 Y1.00100
X2.06100 Y1.00100
X2.06100 Y1.00000
X2.06000 Y1.00000
X2.06000 Y0.99900
X2.05900 Y0.99900
X2.05900 Y0.99800
X2.05800 Y0.99800
X2.05800 Y0.99700
X2.05700 Y0.99700
X2.05700 Y0.99600
X2.05600 Y0.99600
X2.05600 Y0.99500
X2.05500 Y0.99500
X2.05500 Y0.99400
X2.05400 Y0.99400
X2.05400 Y0.99300
X2.05300 Y0.99300
X2.05300 Y0.99200
X2.05200 Y0.99200
X2.05200 Y0.99100
X2.05100 Y0.99100
X2.05100 Y0.99000
X2.05000 Y0.99000
X2.05000 Y0.98900
X2.04900 Y0.98900
X2.04900 Y0.98800
X2.04800 Y0.98800
X2.04800 Y0.98700
X2.04700 Y0.98700
X2.04700 Y0.98600
X2.04600 Y0.98600
X2.04600 Y0.98500
X2.04500 Y0.98500
X2.04500 Y0.98400
X2.04400 Y0.98400
X2.04400 Y0.98300
X2.04300 Y0.98300
X2.04300 Y0.98200
X2.04200 Y0.98200
X2.04200 Y0.98100
X2.04100 Y0.98100
X2.04100 Y0.98000
X2.04000 Y0.98000
X2.04000 Y0.97900
X2.03900 Y0.97900
X2.03900 Y0.97800
X2.03800 Y0.97800
X2.03800 Y0.97700
X2.03700 Y0.97700
X2.03700 Y0.97600
X2.03600 Y0.97600
X2.03600 Y0.97500
X2.03500 Y0.97500
X2.03500 Y0.97400
X2.03400 Y0.97400
X2.03400 Y0.97300
X2.03300 Y0.97300
X2.03300 Y0.97200
X2.03200 Y0.97200
X2.03200 Y0.97100
X2.03100 Y0.97100
X2.03100 Y0.97000
X2.03000 Y0.97000
X2.03000 Y0.96900
X2.02900 Y0.96900
X2.02900 Y0.96800
X2.02800 Y0.96800
X2.02800 Y0.96600
X2.02700 Y0.96600
X2.02700 Y0.96300
X2.02600 Y0.96300
X2.02600 Y0.58700
X2.02700 Y0.58700
X2.02700 Y0.58400
X2.02800 Y0.58400
X2.02800 Y0.58200
X2.02900 Y0.58200
X2.02900 Y0.58100
X2.03000 Y0.58100
X2.03000 Y0.58000
X2.03100 Y0.58000
X2.03100 Y0.57900
X2.03200 Y0.57900
X2.03200 Y0.57800
X2.03300 Y0.57800
X2.03300 Y0.57700
X2.03400 Y0.57700
X2.03400 Y0.57600
X2.03500 Y0.57600
X2.03500 Y0.57500
X2.03600 Y0.57500
X2.03600 Y0.57400
X2.03700 Y0.57400
X2.03700 Y0.57300
X2.03800 Y0.57300
X2.03800 Y0.57200
X2.03900 Y0.57200
X2.03900 Y0.57100
X2.04000 Y0.57100
X2.04000 Y0.57000
X2.04100 Y0.57000
X2.04100 Y0.56900
X2.04200 Y0.56900
X2.04200 Y0.56800
X2.04300 Y0.56800
X2.04300 Y0.56700
X2.04400 Y0.56700
X2.04400 Y0.56600
X2.04500 Y0.56600
X2.04500 Y0.56500
X2.04600 Y0.56500
X2.04600 Y0.56400
X2.04700 Y0.56400
X2.04700 Y0.56300
X2.04800 Y0.56300
X2.04800 Y0.56200
X2.04900 Y0.56200
X2.04900 Y0.56100
X2.05000 Y0.56100
X2.05000 Y0.56000
X2.05100 Y0.56000
X2.05100 Y0.55900
X2.05200 Y0.55900
X2.05200 Y0.55800
X2.05300 Y0.55800
X2.05300 Y0.55700
X2.05400 Y0.55700
X2.05400 Y0.55600
X2.05500 Y0.55600
X2.05500 Y0.55500
X2.05600 Y0.55500
X2.05600 Y0.55400
X2.05700 Y0.55400
X2.05700 Y0.55300
X2.05800 Y0.55300
X2.05800 Y0.55200
X2.05900 Y0.55200
X2.05900 Y0.55100
X2.06000 Y0.55100
X2.06000 Y0.55000
X2.06100 Y0.55000
X2.06100 Y0.54900
X2.06200 Y0.54900
X2.06200 Y0.51200
X2.13800 Y0.51200
X2.13800 Y0.58800
X2.09900 Y0.58800
X2.09900 Y0.58900
X2.09800 Y0.58900
X2.09800 Y0.59000
X2.09700 Y0.59000
X2.09700 Y0.59100
X2.09600 Y0.59100
X2.09600 Y0.59200
X2.09500 Y0.59200
X2.09500 Y0.59300
X2.09400 Y0.59300
X2.09400 Y0.59400
X2.09300 Y0.59400
X2.09300 Y0.59500
X2.09200 Y0.59500
X2.09200 Y0.59600
X2.09100 Y0.59600
X2.09100 Y0.59700
X2.09000 Y0.59700
X2.09000 Y0.59800
X2.08900 Y0.59800
X2.08900 Y0.59900
X2.08800 Y0.59900
X2.08800 Y0.60000
X2.08700 Y0.60000
X2.08700 Y0.60100
X2.08600 Y0.60100
X2.08600 Y0.60200
X2.08500 Y0.60200
X2.08500 Y0.60300
X2.08400 Y0.60300
X2.08400 Y0.60400
X2.08300 Y0.60400
X2.08300 Y0.60500
X2.08200 Y0.60500
X2.08200 Y0.60600
X2.08100 Y0.60600
X2.08100 Y0.60700
X2.08000 Y0.60700
X2.08000 Y0.60800
X2.07900 Y0.60800
X2.07900 Y0.60900
X2.07800 Y0.60900
X2.07800 Y0.61000
X2.07700 Y0.61000
X2.07700 Y0.61100
X2.07600 Y0.61100
X2.07600 Y0.61200
X2.07500 Y0.61200
X2.07500 Y0.61300
X2.07400 Y0.61300
X2.07400 Y0.61400
X2.07300 Y0.61400
X2.07300 Y0.61500
X2.07200 Y0.61500
X2.07200 Y0.93500
X2.07300 Y0.93500
X2.07300 Y0.93600
X2.07400 Y0.93600
X2.07400 Y0.93700
X2.07500 Y0.93700
X2.07500 Y0.93800
X2.07600 Y0.93800
X2.07600 Y0.93900
X2.07700 Y0.93900
X2.07700 Y0.94000
X2.07800 Y0.94000
X2.07800 Y0.94100
X2.07900 Y0.94100
X2.07900 Y0.94200
X2.08000 Y0.94200
X2.08000 Y0.94300
X2.08100 Y0.94300
X2.08100 Y0.94400
X2.08200 Y0.94400
X2.08200 Y0.94500
X2.08300 Y0.94500
X2.08300 Y0.94600
X2.08400 Y0.94600
X2.08400 Y0.94700
X2.08500 Y0.94700
X2.08500 Y0.94800
X2.08600 Y0.94800
X2.08600 Y0.94900
X2.08700 Y0.94900
X2.08700 Y0.95000
X2.08800 Y0.95000
X2.08800 Y0.95100
X2.08900 Y0.95100
X2.08900 Y0.95200
X2.09000 Y0.95200
X2.09000 Y0.95300
X2.09100 Y0.95300
X2.09100 Y0.95400
X2.09200 Y0.95400
X2.09200 Y0.95500
X2.09300 Y0.95500
X2.09300 Y0.95600
X2.09400 Y0.95600
X2.09400 Y0.95700
X2.09500 Y0.95700
X2.09500 Y0.95800
X2.09600 Y0.95800
X2.09600 Y0.95900
X2.09700 Y0.95900
X2.09700 Y0.96000
X2.09800 Y0.96000
X2.09800 Y0.96100
X2.09900 Y0.96100
X2.09900 Y0.96200
X2.10000 Y0.96200
X2.10000 Y0.96300
X2.10100 Y0.96300
X2.10100 Y0.96400
X2.10200 Y0.96400
X2.10200 Y0.96500
X2.10300 Y0.96500
X2.10300 Y0.96600
X2.10400 Y0.96600
X2.10400 Y0.96700
X2.10500 Y0.96700
X2.10500 Y0.96800
X2.10600 Y0.96800
X2.10600 Y0.96900
X2.10700 Y0.96900
X2.10700 Y0.97000
X2.10800 Y0.97000
X2.10800 Y0.97100
X2.10900 Y0.97100
X2.10900 Y0.97200
X2.11000 Y0.97200
X2.11000 Y0.97300
X2.11100 Y0.97300
X2.11100 Y0.97400
X2.11200 Y0.97400
X2.11200 Y0.97500
X2.11300 Y0.97500
X2.11300 Y0.97600
X2.11400 Y0.97600
X2.11400 Y0.97700
X2.15900 Y0.97700
X2.15900 Y0.96000
X2.24000 Y0.96000
X2.24000 Y1.04100
X2.15900 Y1.04100
X2.15900 Y1.03000
G04 P0 ( dwell for no time -- G64 should not smooth over this point )
G00 Z0.19685 ( retract )

G00 X1.86600 Y1.03000 ( rapid move to begin. )
G01 Z-0.01969 F1.96850 ( plunge. )
G04 P0 ( dwell for no time -- G64 should not smooth over this point )
X1.86600 Y1.03000
X1.86500 Y1.03000
X1.86500 Y1.02800
X1.86400 Y1.02800
X1.86400 Y1.02700
X1.86300 Y1.02700
X1.86300 Y1.02500
X1.86200 Y1.02500
X1.86200 Y1.02400
X1.86100 Y1.02400
X1.86100 Y1.01900
X1.86000 Y1.01900
X1.86000 Y1.01400
X1.85900 Y1.01400
X1.85900 Y0.98700
X1.86000 Y0.98700
X1.86000 Y0.98200
X1.86100 Y0.98200
X1.86100 Y0.97700
X1.86200 Y0.97700
X1.86200 Y0.97600
X1.86300 Y0.97600
X1.86300 Y0.97400
X1.86400 Y0.97400
X1.86400 Y0.97300
X1.86500 Y0.97300
X1.86500 Y0.97100
X1.86600 Y0.97100
X1.86600 Y0.97000
X1.86700 Y0.97000
X1.86700 Y0.96900
X1.86800 Y0.96900
X1.86800 Y0.96700
X1.87000 Y0.96700
X1.87000 Y0.96600
X1.87200 Y0.96600
X1.87200 Y0.96500
X1.87300 Y0.96500
X1.87300 Y0.96400
X1.87500 Y0.96400
X1.87500 Y0.96300
X1.87700 Y0.96300
X1.87700 Y0.96200
X1.88000 Y0.96200
X1.88000 Y0.96100
X1.88600 Y0.96100
X1.88600 Y0.96000
X1.91300 Y0.96000
X1.91300 Y0.96100
X1.91900 Y0.96100
X1.91900 Y0.96200
X1.92200 Y0.96200
X1.92200 Y0.96300
X1.92400 Y0.96300
X1.92400 Y0.96400
X1.92600 Y0.96400
X1.92600 Y0.96500
X1.92700 Y0.96500
X1.92700 Y0.96600
X1.92900 Y0.96600
X1.92900 Y0.96700
X1.93100 Y0.96700
X1.93100 Y0.96900
X1.93200 Y0.96900
X1.93200 Y0.97000
X1.93300 Y0.97000
X1.93300 Y0.97100
X1.93400 Y0.97100
X1.93400 Y0.97300
X1.93500 Y0.97300
X1.93500 Y0.97400
X1.93600 Y0.97400
X1.93600 Y0.97600
X1.93700 Y0.97600
X1.93700 Y0.97700
X1.93800 Y0.97700
X1.93800 Y0.98200
X1.93900 Y0.98200
X1.93900 Y0.98700
X1.94000 Y0.98700
X1.94000 Y1.01400
X1.93900 Y1.01400
X1.93900 Y1.01900
X1.93800 Y1.01900
X1.93800 Y1.02400
X1.93700 Y1.02400
X1.93700 Y1.02500
X1.93600 Y1.02500
X1.93600 Y1.02700
X1.93500 Y1.02700
X1.93500 Y1.02800
X1.93400 Y1.02800
X1.93400 Y1.03000
X1.93300 Y1.03000
X1.93300 Y1.03100
X1.93200 Y1.03100
X1.93200 Y1.03200
X1.93100 Y1.03200
X1.93100 Y1.03400
X1.92900 Y1.03400
X1.92900 Y1.03500
X1.92700 Y1.03500
X1.92700 Y1.03600
X1.92500 Y1.03600
X1.92500 Y1.03700
X1.92400 Y1.03700
X1.92400 Y1.03800
X1.92200 Y1.03800
X1.92200 Y1.03900
X1.91900 Y1.03900
X1.91900 Y1.04000
X1.91300 Y1.04000
X1.91300 Y1.04100
X1.88600 Y1.04100
X1.88600 Y1.04000
X1.88000 Y1.04000
X1.88000 Y1.03900
X1.87700 Y1.03900
X1.87700 Y1.03800
X1.87500 Y1.03800
X1.87500 Y1.03700
X1.87400 Y1.03700
X1.87400 Y1.03600
X1.87200 Y1.03600
X1.87200 Y1.03500
X1.87000 Y1.03500
X1.87000 Y1.03400
X1.86800 Y1.03400
X1.86800 Y1.03200
X1.86700 Y1.03200
X1.86700 Y1.03100
X1.86600 Y1.03100
X1.86600 Y1.03000
G04 P0 ( dwell for no time -- G64 should not smooth over this point )
G00 Z0.19685 ( retract )

G00 X0.55900 Y1.03000 ( rapid move to begin. )
G01 Z-0.01969 F1.96850 ( plunge. )
G04 P0 ( dwell for no time -- G64 should not smooth over this point )
X0.55900 Y1.03000
X0.55900 Y0.96000
X0.64000 Y0.96000
X0.64000 Y1.04100
X0.55900 Y1.04100
X0.55900 Y1.03000
G04 P0 ( dwell for no time -- G64 should not smooth over this point )
G00 Z0.19685 ( retract )

G00 X0.46600 Y1.03000 ( rapid move to begin. )
G01 Z-0.01969 F1.96850 ( plunge. )
G04 P0 ( dwell for no time -- G64 should not smooth over this point )
X0.46600 Y1.03000
X0.46500 Y1.03000
X0.46500 Y1.02800
X0.46400 Y1.02800
X0.46400 Y1.02700
X0.46300 Y1.02700
X0.46300 Y1.02500
X0.46200 Y1.02500
X0.46200 Y1.02400
X0.46100 Y1.02400
X0.46100 Y1.01900
X0.46000 Y1.01900
X0.46000 Y1.01400
X0.45900 Y1.01400
X0.45900 Y0.98700
X0.46000 Y0.98700
X0.46000 Y0.98200
X0.46100 Y0.98200
X0.46100 Y0.97700
X0.46200 Y0.97700
X0.46200 Y0.97600
X0.46300 Y0.97600
X0.46300 Y0.97400
X0.46400 Y0.97400
X0.46400 Y0.97300
X0.46500 Y0.97300
X0.46500 Y0.97100
X0.46600 Y0.97100
X0.46600 Y0.97000
X0.46700 Y0.97000
X0.46700 Y0.96900
X0.46800 Y0.96900
X0.46800 Y0.96700
X0.47000 Y0.96700
X0.47000 Y0.96600
X0.47200 Y0.96600
X0.47200 Y0.96500
X0.47300 Y0.96500
X0.47300 Y0.96400
X0.47500 Y0.96400
X0.47500 Y0.96300
X0.47700 Y0.96300
X0.47700 Y0.96200
X0.48000 Y0.96200
X0.48000 Y0.96100
X0.48600 Y0.96100
X0.48600 Y0.96000
X0.51300 Y0.96000
X0.51300 Y0.96100
X0.51900 Y0.96100
X0.51900 Y0.96200
X0.52200 Y0.96200
X0.52200 Y0.96300
X0.52400 Y0.96300
X0.52400 Y0.96400
X0.52600 Y0.96400
X0.52600 Y0.96500
X0.52700 Y0.96500
X0.52700 Y0.96600
X0.52900 Y0.96600
X0.52900 Y0.96700
X0.53100 Y0.96700
X0.53100 Y0.96900
X0.53200 Y0.96900
X0.53200 Y0.97000
X0.53300 Y0.97000
X0.53300 Y0.97100
X0.53400 Y0.97100
X0.53400 Y0.97300
X0.53500 Y0.97300
X0.53500 Y0.97400
X0.53600 Y0.97400
X0.53600 Y0.97600
X0.53700 Y0.97600
X0.53700 Y0.97700
X0.53800 Y0.97700
X0.53800 Y0.98200
X0.53900 Y0.98200
X0.53900 Y0.98700
X0.54000 Y0.98700
X0.54000 Y1.01400
X0.53900 Y1.01400
X0.53900 Y1.01900
X0.53800 Y1.01900
X0.53800 Y1.02400
X0.53700 Y1.02400
X0.53700 Y1.02500
X0.53600 Y1.02500
X0.53600 Y1.02700
X0.53500 Y1.02700
X0.53500 Y1.02800
X0.53400 Y1.02800
X0.53400 Y1.03000
X0.53300 Y1.03000
X0.53300 Y1.03100
X0.53200 Y1.03100
X0.53200 Y1.03200
X0.53100 Y1.03200
X0.53100 Y1.03400
X0.52900 Y1.03400
X0.52900 Y1.03500
X0.52700 Y1.03500
X0.52700 Y1.03600
X0.52500 Y1.03600
X0.52500 Y1.03700
X0.52400 Y1.03700
X0.52400 Y1.03800
X0.52200 Y1.03800
X0.52200 Y1.03900
X0.51900 Y1.03900
X0.51900 Y1.04000
X0.51300 Y1.04000
X0.51300 Y1.04100
X0.48600 Y1.04100
X0.48600 Y1.04000
X0.48000 Y1.04000
X0.48000 Y1.03900
X0.47700 Y1.03900
X0.47700 Y1.03800
X0.47500 Y1.03800
X0.47500 Y1.03700
X0.47400 Y1.03700
X0.47400 Y1.03600
X0.47200 Y1.03600
X0.47200 Y1.03500
X0.47000 Y1.03500
X0.47000 Y1.03400
X0.46800 Y1.03400
X0.46800 Y1.03200
X0.46700 Y1.03200
X0.46700 Y1.03100
X0.46600 Y1.03100
X0.46600 Y1.03000
G04 P0 ( dwell for no time -- G64 should not smooth over this point )
G00 Z0.19685 ( retract )

G00 X1.21600 Y0.98000 ( rapid move to begin. )
G01 Z-0.01969 F1.96850 ( plunge. )
G04 P0 ( dwell for no time -- G64 should not smooth over this point )
X1.21600 Y0.98000
X1.21500 Y0.98000
X1.21500 Y0.97800
X1.21400 Y0.97800
X1.21400 Y0.97700
X1.21300 Y0.97700
X1.21300 Y0.97500
X1.21200 Y0.97500
X1.21200 Y0.97400
X1.21100 Y0.97400
X1.21100 Y0.96900
X1.21000 Y0.96900
X1.21000 Y0.96400
X1.20900 Y0.96400
X1.20900 Y0.93700
X1.21000 Y0.93700
X1.21000 Y0.93200
X1.21100 Y0.93200
X1.21100 Y0.92700
X1.21200 Y0.92700
X1.21200 Y0.92600
X1.21300 Y0.92600
X1.21300 Y0.92400
X1.21400 Y0.92400
X1.21400 Y0.92300
X1.21500 Y0.92300
X1.21500 Y0.92100
X1.21600 Y0.92100
X1.21600 Y0.92000
X1.21700 Y0.92000
X1.21700 Y0.91900
X1.21800 Y0.91900
X1.21800 Y0.91700
X1.22000 Y0.91700
X1.22000 Y0.91600
X1.22200 Y0.91600
X1.22200 Y0.91500
X1.22300 Y0.91500
X1.22300 Y0.91400
X1.22500 Y0.91400
X1.22500 Y0.91300
X1.22700 Y0.91300
X1.22700 Y0.91200
X1.23000 Y0.91200
X1.23000 Y0.91100
X1.23600 Y0.91100
X1.23600 Y0.91000
X1.26300 Y0.91000
X1.26300 Y0.91100
X1.26900 Y0.91100
X1.26900 Y0.91200
X1.27200 Y0.91200
X1.27200 Y0.91300
X1.27400 Y0.91300
X1.27400 Y0.91400
X1.27600 Y0.91400
X1.27600 Y0.91500
X1.27700 Y0.91500
X1.27700 Y0.91600
X1.27900 Y0.91600
X1.27900 Y0.91700
X1.28100 Y0.91700
X1.28100 Y0.91900
X1.28200 Y0.91900
X1.28200 Y0.92000
X1.28300 Y0.92000
X1.28300 Y0.92100
X1.28400 Y0.92100
X1.28400 Y0.92300
X1.28500 Y0.92300
X1.28500 Y0.92400
X1.28600 Y0.92400
X1.28600 Y0.92600
X1.28700 Y0.92600
X1.28700 Y0.92700
X1.28800 Y0.92700
X1.28800 Y0.93200
X1.28900 Y0.93200
X1.28900 Y0.93700
X1.29000 Y0.93700
X1.29000 Y0.96400
X1.28900 Y0.96400
X1.28900 Y0.96900
X1.28800 Y0.96900
X1.28800 Y0.97400
X1.28700 Y0.97400
X1.28700 Y0.97500
X1.28600 Y0.97500
X1.28600 Y0.97700
X1.28500 Y0.97700
X1.28500 Y0.97800
X1.28400 Y0.97800
X1.28400 Y0.98000
X1.28300 Y0.98000
X1.28300 Y0.98100
X1.28200 Y0.98100
X1.28200 Y0.98200
X1.28100 Y0.98200
X1.28100 Y0.98400
X1.27900 Y0.98400
X1.27900 Y0.98500
X1.27700 Y0.98500
X1.27700 Y0.98600
X1.27500 Y0.98600
X1.27500 Y0.98700
X1.27400 Y0.98700
X1.27400 Y0.98800
X1.27200 Y0.98800
X1.27200 Y0.98900
X1.26900 Y0.98900
X1.26900 Y0.99000
X1.26300 Y0.99000
X1.26300 Y0.99100
X1.23600 Y0.99100
X1.23600 Y0.99000
X1.23000 Y0.99000
X1.23000 Y0.98900
X1.22700 Y0.98900
X1.22700 Y0.98800
X1.22500 Y0.98800
X1.22500 Y0.98700
X1.22400 Y0.98700
X1.22400 Y0.98600
X1.22200 Y0.98600
X1.22200 Y0.98500
X1.22000 Y0.98500
X1.22000 Y0.98400
X1.21800 Y0.98400
X1.21800 Y0.98200
X1.21700 Y0.98200
X1.21700 Y0.98100
X1.21600 Y0.98100
X1.21600 Y0.98000
G04 P0 ( dwell for no time -- G64 should not smooth over this point )
G00 Z0.19685 ( retract )

G00 X1.10900 Y0.98000 ( rapid move to begin. )
G01 Z-0.01969 F1.96850 ( plunge. )
G04 P0 ( dwell for no time -- G64 should not smooth over this point )
X1.10900 Y0.98000
X1.10900 Y0.91000
X1.19000 Y0.91000
X1.19000 Y0.99100
X1.10900 Y0.99100
X1.10900 Y0.98000
G04 P0 ( dwell for no time -- G64 should not smooth over this point )
G00 Z0.19685 ( retract )

G00 X1.61200 Y0.97700 ( rapid move to begin. )
G01 Z-0.01969 F1.96850 ( plunge. )
G04 P0 ( dwell for no time -- G64 should not smooth over this point )
X1.61200 Y0.97700
X1.61200 Y0.91200
X1.68800 Y0.91200
X1.68800 Y0.98800
X1.61200 Y0.98800
X1.61200 Y0.97700
G04 P0 ( dwell for no time -- G64 should not smooth over this point )
G00 Z0.19685 ( retract )

G00 X2.16600 Y0.93000 ( rapid move to begin. )
G01 Z-0.01969 F1.96850 ( plunge. )
G04 P0 ( dwell for no time -- G64 should not smooth over this point )
X2.16600 Y0.93000
X2.16500 Y0.93000
X2.16500 Y0.92800
X2.16400 Y0.92800
X2.16400 Y0.92700
X2.16300 Y0.92700
X2.16300 Y0.92500
X2.16200 Y0.92500
X2.16200 Y0.92400
X2.16100 Y0.92400
X2.16100 Y0.91900
X2.16000 Y0.91900
X2.16000 Y0.91400
X2.15900 Y0.91400
X2.15900 Y0.88700
X2.16000 Y0.88700
X2.16000 Y0.88200
X2.16100 Y0.88200
X2.16100 Y0.87700
X2.16200 Y0.87700
X2.16200 Y0.87600
X2.16300 Y0.87600
X2.16300 Y0.87400
X2.16400 Y0.87400
X2.16400 Y0.87300
X2.16500 Y0.87300
X2.16500 Y0.87100
X2.16600 Y0.87100
X2.16600 Y0.87000
X2.16700 Y0.87000
X2.16700 Y0.86900
X2.16800 Y0.86900
X2.16800 Y0.86700
X2.17000 Y0.86700
X2.17000 Y0.86600
X2.17200 Y0.86600
X2.17200 Y0.86500
X2.17300 Y0.86500
X2.17300 Y0.86400
X2.17500 Y0.86400
X2.17500 Y0.86300
X2.17700 Y0.86300
X2.17700 Y0.86200
X2.18000 Y0.86200
X2.18000 Y0.86100
X2.18600 Y0.86100
X2.18600 Y0.86000
X2.21300 Y0.86000
X2.21300 Y0.86100
X2.21900 Y0.86100
X2.21900 Y0.86200
X2.22200 Y0.86200
X2.22200 Y0.86300
X2.22400 Y0.86300
X2.22400 Y0.86400
X2.22600 Y0.86400
X2.22600 Y0.86500
X2.22700 Y0.86500
X2.22700 Y0.86600
X2.22900 Y0.86600
X2.22900 Y0.86700
X2.23100 Y0.86700
X2.23100 Y0.86900
X2.23200 Y0.86900
X2.23200 Y0.87000
X2.23300 Y0.87000
X2.23300 Y0.87100
X2.23400 Y0.87100
X2.23400 Y0.87300
X2.23500 Y0.87300
X2.23500 Y0.87400
X2.23600 Y0.87400
X2.23600 Y0.87600
X2.23700 Y0.87600
X2.23700 Y0.87700
X2.23800 Y0.87700
X2.23800 Y0.88200
X2.23900 Y0.88200
X2.23900 Y0.88700
X2.24000 Y0.88700
X2.24000 Y0.91400
X2.23900 Y0.91400
X2.23900 Y0.91900
X2.23800 Y0.91900
X2.23800 Y0.92400
X2.23700 Y0.92400
X2.23700 Y0.92500
X2.23600 Y0.92500
X2.23600 Y0.92700
X2.23500 Y0.92700
X2.23500 Y0.92800
X2.23400 Y0.92800
X2.23400 Y0.93000
X2.23300 Y0.93000
X2.23300 Y0.93100
X2.23200 Y0.93100
X2.23200 Y0.93200
X2.23100 Y0.93200
X2.23100 Y0.93400
X2.22900 Y0.93400
X2.22900 Y0.93500
X2.22700 Y0.93500
X2.22700 Y0.93600
X2.22500 Y0.93600
X2.22500 Y0.93700
X2.22400 Y0.93700
X2.22400 Y0.93800
X2.22200 Y0.93800
X2.22200 Y0.93900
X2.21900 Y0.93900
X2.21900 Y0.94000
X2.21300 Y0.94000
X2.21300 Y0.94100
X2.18600 Y0.94100
X2.18600 Y0.94000
X2.18000 Y0.94000
X2.18000 Y0.93900
X2.17700 Y0.93900
X2.17700 Y0.93800
X2.17500 Y0.93800
X2.17500 Y0.93700
X2.17400 Y0.93700
X2.17400 Y0.93600
X2.17200 Y0.93600
X2.17200 Y0.93500
X2.17000 Y0.93500
X2.17000 Y0.93400
X2.16800 Y0.93400
X2.16800 Y0.93200
X2.16700 Y0.93200
X2.16700 Y0.93100
X2.16600 Y0.93100
X2.16600 Y0.93000
G04 P0 ( dwell for no time -- G64 should not smooth over this point )
G00 Z0.19685 ( retract )

G00 X1.86600 Y0.93000 ( rapid move to begin. )
G01 Z-0.01969 F1.96850 ( plunge. )
G04 P0 ( dwell for no time -- G64 should not smooth over this point )
X1.86600 Y0.93000
X1.86500 Y0.93000
X1.86500 Y0.92800
X1.86400 Y0.92800
X1.86400 Y0.92700
X1.86300 Y0.92700
X1.86300 Y0.92500
X1.86200 Y0.92500
X1.86200 Y0.92400
X1.86100 Y0.92400
X1.86100 Y0.91900
X1.86000 Y0.91900
X1.86000 Y0.91400
X1.85900 Y0.91400
X1.85900 Y0.88700
X1.86000 Y0.88700
X1.86000 Y0.88200
X1.86100 Y0.88200
X1.86100 Y0.87700
X1.86200 Y0.87700
X1.86200 Y0.87600
X1.86300 Y0.87600
X1.86300 Y0.87400
X1.86400 Y0.87400
X1.86400 Y0.87300
X1.86500 Y0.87300
X1.86500 Y0.87100
X1.86600 Y0.87100
X1.86600 Y0.87000
X1.86700 Y0.87000
X1.86700 Y0.86900
X1.86800 Y0.86900
X1.86800 Y0.86700
X1.87000 Y0.86700
X1.87000 Y0.86600
X1.87200 Y0.86600
X1.87200 Y0.86500
X1.87300 Y0.86500
X1.87300 Y0.86400
X1.87500 Y0.86400
X1.87500 Y0.86300
X1.87700 Y0.86300
X1.87700 Y0.86200
X1.88000 Y0.86200
X1.88000 Y0.86100
X1.88600 Y0.86100
X1.88600 Y0.86000
X1.91300 Y0.86000
X1.91300 Y0.86100
X1.91900 Y0.86100
X1.91900 Y0.86200
X1.92200 Y0.86200
X1.92200 Y0.86300
X1.92400 Y0.86300
X1.92400 Y0.86400
X1.92600 Y0.86400
X1.92600 Y0.86500
X1.92700 Y0.86500
X1.92700 Y0.86600
X1.92900 Y0.86600
X1.92900 Y0.86700
X1.93100 Y0.86700
X1.93100 Y0.86900
X1.93200 Y0.86900
X1.93200 Y0.87000
X1.93300 Y0.87000
X1.93300 Y0.87100
X1.93400 Y0.87100
X1.93400 Y0.87300
X1.93500 Y0.87300
X1.93500 Y0.87400
X1.93600 Y0.87400
X1.93600 Y0.87600
X1.93700 Y0.87600
X1.93700 Y0.87700
X1.93800 Y0.87700
X1.93800 Y0.88200
X1.93900 Y0.88200
X1.93900 Y0.88700
X1.94000 Y0.88700
X1.94000 Y0.91400
X1.93900 Y0.91400
X1.93900 Y0.91900
X1.93800 Y0.91900
X1.93800 Y0.92400
X1.93700 Y0.92400
X1.93700 Y0.92500
X1.93600 Y0.92500
X1.93600 Y0.92700
X1.93500 Y0.92700
X1.93500 Y0.92800
X1.93400 Y0.92800
X1.93400 Y0.93000
X1.93300 Y0.93000
X1.93300 Y0.93100
X1.93200 Y0.93100
X1.93200 Y0.93200
X1.93100 Y0.93200
X1.93100 Y0.93400
X1.92900 Y0.93400
X1.92900 Y0.93500
X1.92700 Y0.93500
X1.92700 Y0.93600
X1.92500 Y0.93600
X1.92500 Y0.93700
X1.92400 Y0.93700
X1.92400 Y0.93800
X1.92200 Y0.93800
X1.92200 Y0.93900
X1.91900 Y0.93900
X1.91900 Y0.94000
X1.91300 Y0.94000
X1.91300 Y0.94100
X1.88600 Y0.94100
X1.88600 Y0.94000
X1.88000 Y0.94000
X1.88000 Y0.93900
X1.87700 Y0.93900
X1.87700 Y0.93800
X1.87500 Y0.93800
X1.87500 Y0.93700
X1.87400 Y0.93700
X1.87400 Y0.93600
X1.87200 Y0.93600
X1.87200 Y0.93500
X1.87000 Y0.93500
X1.87000 Y0.93400
X1.86800 Y0.93400
X1.86800 Y0.93200
X1.86700 Y0.93200
X1.86700 Y0.93100
X1.86600 Y0.93100
X1.86600 Y0.93000
G04 P0 ( dwell for no time -- G64 should not smooth over this point )
G00 Z0.19685 ( retract )

G00 X0.55900 Y0.88000 ( rapid move to begin. )
G01 Z-0.01969 F1.96850 ( plunge. )
G04 P0 ( dwell for no time -- G64 should not smooth over this point )
X0.55900 Y0.88000
X0.55900 Y0.87300
X0.48600 Y0.87300
X0.48600 Y0.87200
X0.48300 Y0.87200
X0.48300 Y0.87100
X0.48100 Y0.87100
X0.48100 Y0.87000
X0.48000 Y0.87000
X0.48000 Y0.86900
X0.47900 Y0.86900
X0.47900 Y0.86800
X0.47800 Y0.86800
X0.47800 Y0.86700
X0.47700 Y0.86700
X0.47700 Y0.86600
X0.47600 Y0.86600
X0.47600 Y0.86500
X0.47500 Y0.86500
X0.47500 Y0.86400
X0.47400 Y0.86400
X0.47400 Y0.86300
X0.47300 Y0.86300
X0.47300 Y0.86200
X0.47200 Y0.86200
X0.47200 Y0.86100
X0.47100 Y0.86100
X0.47100 Y0.86000
X0.47000 Y0.86000
X0.47000 Y0.85900
X0.46900 Y0.85900
X0.46900 Y0.85800
X0.46800 Y0.85800
X0.46800 Y0.85700
X0.46700 Y0.85700
X0.46700 Y0.85600
X0.46600 Y0.85600
X0.46600 Y0.85500
X0.46500 Y0.85500
X0.46500 Y0.85400
X0.46400 Y0.85400
X0.46400 Y0.85300
X0.46300 Y0.85300
X0.46300 Y0.85200
X0.46200 Y0.85200
X0.46200 Y0.85100
X0.46100 Y0.85100
X0.46100 Y0.85000
X0.46000 Y0.85000
X0.46000 Y0.84900
X0.45900 Y0.84900
X0.45900 Y0.84800
X0.45800 Y0.84800
X0.45800 Y0.84700
X0.45700 Y0.84700
X0.45700 Y0.84600
X0.45600 Y0.84600
X0.45600 Y0.84500
X0.45500 Y0.84500
X0.45500 Y0.84400
X0.45400 Y0.84400
X0.45400 Y0.84300
X0.45300 Y0.84300
X0.45300 Y0.84200
X0.45200 Y0.84200
X0.45200 Y0.84100
X0.45100 Y0.84100
X0.45100 Y0.84000
X0.45000 Y0.84000
X0.45000 Y0.83900
X0.44900 Y0.83900
X0.44900 Y0.83800
X0.44800 Y0.83800
X0.44800 Y0.83700
X0.44700 Y0.83700
X0.44700 Y0.83600
X0.44600 Y0.83600
X0.44600 Y0.83500
X0.44500 Y0.83500
X0.44500 Y0.83400
X0.44400 Y0.83400
X0.44400 Y0.83300
X0.44300 Y0.83300
X0.44300 Y0.83200
X0.44200 Y0.83200
X0.44200 Y0.83100
X0.44100 Y0.83100
X0.44100 Y0.83000
X0.44000 Y0.83000
X0.44000 Y0.82900
X0.43900 Y0.82900
X0.43900 Y0.82800
X0.43800 Y0.82800
X0.43800 Y0.82700
X0.43700 Y0.82700
X0.43700 Y0.82600
X0.43600 Y0.82600
X0.43600 Y0.82500
X0.43500 Y0.82500
X0.43500 Y0.82400
X0.43400 Y0.82400
X0.43400 Y0.82300
X0.43300 Y0.82300
X0.43300 Y0.82200
X0.43200 Y0.82200
X0.43200 Y0.82100
X0.43100 Y0.82100
X0.43100 Y0.82000
X0.43000 Y0.82000
X0.43000 Y0.81900
X0.42900 Y0.81900
X0.42900 Y0.81800
X0.42800 Y0.81800
X0.42800 Y0.81600
X0.42700 Y0.81600
X0.42700 Y0.81300
X0.42600 Y0.81300
X0.42600 Y0.43700
X0.42700 Y0.43700
X0.42700 Y0.43400
X0.42800 Y0.43400
X0.42800 Y0.43200
X0.42900 Y0.43200
X0.42900 Y0.43100
X0.43000 Y0.43100
X0.43000 Y0.43000
X0.43100 Y0.43000
X0.43100 Y0.42900
X0.43200 Y0.42900
X0.43200 Y0.42800
X0.43300 Y0.42800
X0.43300 Y0.42700
X0.43400 Y0.42700
X0.43400 Y0.42600
X0.43500 Y0.42600
X0.43500 Y0.42500
X0.43600 Y0.42500
X0.43600 Y0.42400
X0.43700 Y0.42400
X0.43700 Y0.42300
X0.43800 Y0.42300
X0.43800 Y0.42200
X0.43900 Y0.42200
X0.43900 Y0.42100
X0.44000 Y0.42100
X0.44000 Y0.42000
X0.44100 Y0.42000
X0.44100 Y0.41900
X0.44200 Y0.41900
X0.44200 Y0.41800
X0.44300 Y0.41800
X0.44300 Y0.41700
X0.44400 Y0.41700
X0.44400 Y0.41600
X0.44500 Y0.41600
X0.44500 Y0.41500
X0.44600 Y0.41500
X0.44600 Y0.41400
X0.44700 Y0.41400
X0.44700 Y0.41300
X0.44800 Y0.41300
X0.44800 Y0.41200
X0.44900 Y0.41200
X0.44900 Y0.41100
X0.45000 Y0.41100
X0.45000 Y0.41000
X0.45100 Y0.41000
X0.45100 Y0.40900
X0.45200 Y0.40900
X0.45200 Y0.40800
X0.45300 Y0.40800
X0.45300 Y0.40700
X0.45400 Y0.40700
X0.45400 Y0.40600
X0.45500 Y0.40600
X0.45500 Y0.40500
X0.45600 Y0.40500
X0.45600 Y0.40400
X0.45700 Y0.40400
X0.45700 Y0.40300
X0.45800 Y0.40300
X0.45800 Y0.40200
X0.45900 Y0.40200
X0.45900 Y0.40100
X0.46000 Y0.40100
X0.46000 Y0.40000
X0.46100 Y0.40000
X0.46100 Y0.39900
X0.46200 Y0.39900
X0.46200 Y0.36200
X0.53800 Y0.36200
X0.53800 Y0.43800
X0.49900 Y0.43800
X0.49900 Y0.43900
X0.49800 Y0.43900
X0.49800 Y0.44000
X0.49700 Y0.44000
X0.49700 Y0.44100
X0.49600 Y0.44100
X0.49600 Y0.44200
X0.49500 Y0.44200
X0.49500 Y0.44300
X0.49400 Y0.44300
X0.49400 Y0.44400
X0.49300 Y0.44400
X0.49300 Y0.44500
X0.49200 Y0.44500
X0.49200 Y0.44600
X0.49100 Y0.44600
X0.49100 Y0.44700
X0.49000 Y0.44700
X0.49000 Y0.44800
X0.48900 Y0.44800
X0.48900 Y0.44900
X0.48800 Y0.44900
X0.48800 Y0.45000
X0.48700 Y0.45000
X0.48700 Y0.45100
X0.48600 Y0.45100
X0.48600 Y0.45200
X0.48500 Y0.45200
X0.48500 Y0.45300
X0.48400 Y0.45300
X0.48400 Y0.45400
X0.48300 Y0.45400
X0.48300 Y0.45500
X0.48200 Y0.45500
X0.48200 Y0.45600
X0.48100 Y0.45600
X0.48100 Y0.45700
X0.48000 Y0.45700
X0.48000 Y0.45800
X0.47900 Y0.45800
X0.47900 Y0.45900
X0.47800 Y0.45900
X0.47800 Y0.46000
X0.47700 Y0.46000
X0.47700 Y0.46100
X0.47600 Y0.46100
X0.47600 Y0.46200
X0.47500 Y0.46200
X0.47500 Y0.46300
X0.47400 Y0.46300
X0.47400 Y0.46400
X0.47300 Y0.46400
X0.47300 Y0.46500
X0.47200 Y0.46500
X0.47200 Y0.78500
X0.47300 Y0.78500
X0.47300 Y0.78600
X0.47400 Y0.78600
X0.47400 Y0.78700
X0.47500 Y0.78700
X0.47500 Y0.78800
X0.47600 Y0.78800
X0.47600 Y0.78900
X0.47700 Y0.78900
X0.47700 Y0.79000
X0.47800 Y0.79000
X0.47800 Y0.79100
X0.47900 Y0.79100
X0.47900 Y0.79200
X0.48000 Y0.79200
X0.48000 Y0.79300
X0.48100 Y0.79300
X0.48100 Y0.79400
X0.48200 Y0.79400
X0.48200 Y0.79500
X0.48300 Y0.79500
X0.48300 Y0.79600
X0.48400 Y0.79600
X0.48400 Y0.79700
X0.48500 Y0.79700
X0.48500 Y0.79800
X0.48600 Y0.79800
X0.48600 Y0.79900
X0.48700 Y0.79900
X0.48700 Y0.80000
X0.48800 Y0.80000
X0.48800 Y0.80100
X0.48900 Y0.80100
X0.48900 Y0.80200
X0.49000 Y0.80200
X0.49000 Y0.80300
X0.49100 Y0.80300
X0.49100 Y0.80400
X0.49200 Y0.80400
X0.49200 Y0.80500
X0.49300 Y0.80500
X0.49300 Y0.80600
X0.49400 Y0.80600
X0.49400 Y0.80700
X0.49500 Y0.80700
X0.49500 Y0.80800
X0.49600 Y0.80800
X0.49600 Y0.80900
X0.49700 Y0.80900
X0.49700 Y0.81000
X0.49800 Y0.81000
X0.49800 Y0.81100
X0.49900 Y0.81100
X0.49900 Y0.81200
X0.50000 Y0.81200
X0.50000 Y0.81300
X0.50100 Y0.81300
X0.50100 Y0.81400
X0.50200 Y0.81400
X0.50200 Y0.81500
X0.50300 Y0.81500
X0.50300 Y0.81600
X0.50400 Y0.81600
X0.50400 Y0.81700
X0.50500 Y0.81700
X0.50500 Y0.81800
X0.50600 Y0.81800
X0.50600 Y0.81900
X0.50700 Y0.81900
X0.50700 Y0.82000
X0.50800 Y0.82000
X0.50800 Y0.82100
X0.50900 Y0.82100
X0.50900 Y0.82200
X0.51000 Y0.82200
X0.51000 Y0.82300
X0.51100 Y0.82300
X0.51100 Y0.82400
X0.51200 Y0.82400
X0.51200 Y0.82500
X0.51300 Y0.82500
X0.51300 Y0.82600
X0.51400 Y0.82600
X0.51400 Y0.82700
X0.55900 Y0.82700
X0.55900 Y0.81000
X0.64000 Y0.81000
X0.64000 Y0.89100
X0.55900 Y0.89100
X0.55900 Y0.88000
G04 P0 ( dwell for no time -- G64 should not smooth over this point )
G00 Z0.19685 ( retract )

G00 X0.26600 Y0.88000 ( rapid move to begin. )
G01 Z-0.01969 F1.96850 ( plunge. )
G04 P0 ( dwell for no time -- G64 should not smooth over this point )
X0.26600 Y0.88000
X0.26500 Y0.88000
X0.26500 Y0.87800
X0.26400 Y0.87800
X0.26400 Y0.87700
X0.26300 Y0.87700
X0.26300 Y0.87500
X0.26200 Y0.87500
X0.26200 Y0.87400
X0.26100 Y0.87400
X0.26100 Y0.86900
X0.26000 Y0.86900
X0.26000 Y0.86400
X0.25900 Y0.86400
X0.25900 Y0.83700
X0.26000 Y0.83700
X0.26000 Y0.83200
X0.26100 Y0.83200
X0.26100 Y0.82700
X0.26200 Y0.82700
X0.26200 Y0.82600
X0.26300 Y0.82600
X0.26300 Y0.82400
X0.26400 Y0.82400
X0.26400 Y0.82300
X0.26500 Y0.82300
X0.26500 Y0.82100
X0.26600 Y0.82100
X0.26600 Y0.82000
X0.26700 Y0.82000
X0.26700 Y0.81900
X0.26800 Y0.81900
X0.26800 Y0.81700
X0.27000 Y0.81700
X0.27000 Y0.81600
X0.27200 Y0.81600
X0.27200 Y0.81500
X0.27300 Y0.81500
X0.27300 Y0.81400
X0.27500 Y0.81400
X0.27500 Y0.81300
X0.27700 Y0.81300
X0.27700 Y0.81200
X0.28000 Y0.81200
X0.28000 Y0.81100
X0.28600 Y0.81100
X0.28600 Y0.81000
X0.31300 Y0.81000
X0.31300 Y0.81100
X0.31900 Y0.81100
X0.31900 Y0.81200
X0.32200 Y0.81200
X0.32200 Y0.81300
X0.32400 Y0.81300
X0.32400 Y0.81400
X0.32600 Y0.81400
X0.32600 Y0.81500
X0.32700 Y0.81500
X0.32700 Y0.81600
X0.32900 Y0.81600
X0.32900 Y0.81700
X0.33100 Y0.81700
X0.33100 Y0.81900
X0.33200 Y0.81900
X0.33200 Y0.82000
X0.33300 Y0.82000
X0.33300 Y0.82100
X0.33400 Y0.82100
X0.33400 Y0.82300
X0.33500 Y0.82300
X0.33500 Y0.82400
X0.33600 Y0.82400
X0.33600 Y0.82600
X0.33700 Y0.82600
X0.33700 Y0.82700
X0.33800 Y0.82700
X0.33800 Y0.83200
X0.33900 Y0.83200
X0.33900 Y0.83700
X0.34000 Y0.83700
X0.34000 Y0.86400
X0.33900 Y0.86400
X0.33900 Y0.86900
X0.33800 Y0.86900
X0.33800 Y0.87400
X0.33700 Y0.87400
X0.33700 Y0.87500
X0.33600 Y0.87500
X0.33600 Y0.87700
X0.33500 Y0.87700
X0.33500 Y0.87800
X0.33400 Y0.87800
X0.33400 Y0.88000
X0.33300 Y0.88000
X0.33300 Y0.88100
X0.33200 Y0.88100
X0.33200 Y0.88200
X0.33100 Y0.88200
X0.33100 Y0.88400
X0.32900 Y0.88400
X0.32900 Y0.88500
X0.32700 Y0.88500
X0.32700 Y0.88600
X0.32500 Y0.88600
X0.32500 Y0.88700
X0.32400 Y0.88700
X0.32400 Y0.88800
X0.32200 Y0.88800
X0.32200 Y0.88900
X0.31900 Y0.88900
X0.31900 Y0.89000
X0.31300 Y0.89000
X0.31300 Y0.89100
X0.28600 Y0.89100
X0.28600 Y0.89000
X0.28000 Y0.89000
X0.28000 Y0.88900
X0.27700 Y0.88900
X0.27700 Y0.88800
X0.27500 Y0.88800
X0.27500 Y0.88700
X0.27400 Y0.88700
X0.27400 Y0.88600
X0.27200 Y0.88600
X0.27200 Y0.88500
X0.27000 Y0.88500
X0.27000 Y0.88400
X0.26800 Y0.88400
X0.26800 Y0.88200
X0.26700 Y0.88200
X0.26700 Y0.88100
X0.26600 Y0.88100
X0.26600 Y0.88000
G04 P0 ( dwell for no time -- G64 should not smooth over this point )
G00 Z0.19685 ( retract )

G00 X1.61700 Y0.87700 ( rapid move to begin. )
G01 Z-0.01969 F1.96850 ( plunge. )
G04 P0 ( dwell for no time -- G64 should not smooth over this point )
X1.61700 Y0.87700
X1.61600 Y0.87700
X1.61600 Y0.87500
X1.61500 Y0.87500
X1.61500 Y0.87400
X1.61400 Y0.87400
X1.61400 Y0.87100
X1.61300 Y0.87100
X1.61300 Y0.86600
X1.61200 Y0.86600
X1.61200 Y0.83500
X1.61300 Y0.83500
X1.61300 Y0.83000
X1.61400 Y0.83000
X1.61400 Y0.82700
X1.61500 Y0.82700
X1.61500 Y0.82600
X1.61600 Y0.82600
X1.61600 Y0.82400
X1.61700 Y0.82400
X1.61700 Y0.82300
X1.61800 Y0.82300
X1.61800 Y0.82200
X1.61900 Y0.82200
X1.61900 Y0.82000
X1.62000 Y0.82000
X1.62000 Y0.81900
X1.62200 Y0.81900
X1.62200 Y0.81800
X1.62300 Y0.81800
X1.62300 Y0.81700
X1.62500 Y0.81700
X1.62500 Y0.81600
X1.62700 Y0.81600
X1.62700 Y0.81500
X1.62800 Y0.81500
X1.62800 Y0.81400
X1.63300 Y0.81400
X1.63300 Y0.81300
X1.66600 Y0.81300
X1.66600 Y0.81400
X1.67100 Y0.81400
X1.67100 Y0.81500
X1.67200 Y0.81500
X1.67200 Y0.81600
X1.67400 Y0.81600
X1.67400 Y0.81700
X1.67600 Y0.81700
X1.67600 Y0.81800
X1.67700 Y0.81800
X1.67700 Y0.81900
X1.67900 Y0.81900
X1.67900 Y0.82000
X1.68000 Y0.82000
X1.68000 Y0.82200
X1.68100 Y0.82200
X1.68100 Y0.82300
X1.68200 Y0.82300
X1.68200 Y0.82400
X1.68300 Y0.82400
X1.68300 Y0.82600
X1.68400 Y0.82600
X1.68400 Y0.82700
X1.68500 Y0.82700
X1.68500 Y0.83000
X1.68600 Y0.83000
X1.68600 Y0.83500
X1.68700 Y0.83500
X1.68700 Y0.86600
X1.68600 Y0.86600
X1.68600 Y0.87100
X1.68500 Y0.87100
X1.68500 Y0.87400
X1.68400 Y0.87400
X1.68400 Y0.87500
X1.68300 Y0.87500
X1.68300 Y0.87700
X1.68200 Y0.87700
X1.68200 Y0.87800
X1.68100 Y0.87800
X1.68100 Y0.87900
X1.68000 Y0.87900
X1.68000 Y0.88100
X1.67900 Y0.88100
X1.67900 Y0.88200
X1.67700 Y0.88200
X1.67700 Y0.88300
X1.67600 Y0.88300
X1.67600 Y0.88400
X1.67400 Y0.88400
X1.67400 Y0.88500
X1.67200 Y0.88500
X1.67200 Y0.88600
X1.67100 Y0.88600
X1.67100 Y0.88700
X1.66600 Y0.88700
X1.66600 Y0.88800
X1.63300 Y0.88800
X1.63300 Y0.88700
X1.62800 Y0.88700
X1.62800 Y0.88600
X1.62700 Y0.88600
X1.62700 Y0.88500
X1.62500 Y0.88500
X1.62500 Y0.88400
X1.62300 Y0.88400
X1.62300 Y0.88300
X1.62200 Y0.88300
X1.62200 Y0.88200
X1.62000 Y0.88200
X1.62000 Y0.88100
X1.61900 Y0.88100
X1.61900 Y0.87900
X1.61800 Y0.87900
X1.61800 Y0.87800
X1.61700 Y0.87800
X1.61700 Y0.87700
G04 P0 ( dwell for no time -- G64 should not smooth over this point )
G00 Z0.19685 ( retract )

G00 X1.21700 Y0.87700 ( rapid move to begin. )
G01 Z-0.01969 F1.96850 ( plunge. )
G04 P0 ( dwell for no time -- G64 should not smooth over this point )
X1.21700 Y0.87700
X1.21600 Y0.87700
X1.21600 Y0.87500
X1.21500 Y0.87500
X1.21500 Y0.87400
X1.21400 Y0.87400
X1.21400 Y0.87100
X1.21300 Y0.87100
X1.21300 Y0.86600
X1.21200 Y0.86600
X1.21200 Y0.83500
X1.21300 Y0.83500
X1.21300 Y0.83000
X1.21400 Y0.83000
X1.21400 Y0.82700
X1.21500 Y0.82700
X1.21500 Y0.82600
X1.21600 Y0.82600
X1.21600 Y0.82400
X1.21700 Y0.82400
X1.21700 Y0.82300
X1.21800 Y0.82300
X1.21800 Y0.82200
X1.21900 Y0.82200
X1.21900 Y0.82000
X1.22000 Y0.82000
X1.22000 Y0.81900
X1.22200 Y0.81900
X1.22200 Y0.81800
X1.22300 Y0.81800
X1.22300 Y0.81700
X1.22500 Y0.81700
X1.22500 Y0.81600
X1.22700 Y0.81600
X1.22700 Y0.81500
X1.22800 Y0.81500
X1.22800 Y0.81400
X1.23300 Y0.81400
X1.23300 Y0.81300
X1.26600 Y0.81300
X1.26600 Y0.81400
X1.27100 Y0.81400
X1.27100 Y0.81500
X1.27200 Y0.81500
X1.27200 Y0.81600
X1.27400 Y0.81600
X1.27400 Y0.81700
X1.27600 Y0.81700
X1.27600 Y0.81800
X1.27700 Y0.81800
X1.27700 Y0.81900
X1.27900 Y0.81900
X1.27900 Y0.82000
X1.28000 Y0.82000
X1.28000 Y0.82200
X1.28100 Y0.82200
X1.28100 Y0.82300
X1.28200 Y0.82300
X1.28200 Y0.82400
X1.28300 Y0.82400
X1.28300 Y0.82600
X1.28400 Y0.82600
X1.28400 Y0.82700
X1.28500 Y0.82700
X1.28500 Y0.83000
X1.28600 Y0.83000
X1.28600 Y0.83500
X1.28700 Y0.83500
X1.28700 Y0.86600
X1.28600 Y0.86600
X1.28600 Y0.87100
X1.28500 Y0.87100
X1.28500 Y0.87400
X1.28400 Y0.87400
X1.28400 Y0.87500
X1.28300 Y0.87500
X1.28300 Y0.87700
X1.28200 Y0.87700
X1.28200 Y0.87800
X1.28100 Y0.87800
X1.28100 Y0.87900
X1.28000 Y0.87900
X1.28000 Y0.88100
X1.27900 Y0.88100
X1.27900 Y0.88200
X1.27700 Y0.88200
X1.27700 Y0.88300
X1.27600 Y0.88300
X1.27600 Y0.88400
X1.27400 Y0.88400
X1.27400 Y0.88500
X1.27200 Y0.88500
X1.27200 Y0.88600
X1.27100 Y0.88600
X1.27100 Y0.88700
X1.26600 Y0.88700
X1.26600 Y0.88800
X1.23300 Y0.88800
X1.23300 Y0.88700
X1.22800 Y0.88700
X1.22800 Y0.88600
X1.22700 Y0.88600
X1.22700 Y0.88500
X1.22500 Y0.88500
X1.22500 Y0.88400
X1.22300 Y0.88400
X1.22300 Y0.88300
X1.22200 Y0.88300
X1.22200 Y0.88200
X1.22000 Y0.88200
X1.22000 Y0.88100
X1.21900 Y0.88100
X1.21900 Y0.87900
X1.21800 Y0.87900
X1.21800 Y0.87800
X1.21700 Y0.87800
X1.21700 Y0.87700
G04 P0 ( dwell for no time -- G64 should not smooth over this point )
G00 Z0.19685 ( retract )

G00 X1.11700 Y0.87700 ( rapid move to begin. )
G01 Z-0.01969 F1.96850 ( plunge. )
G04 P0 ( dwell for no time -- G64 should not smooth over this point )
X1.11700 Y0.87700
X1.11600 Y0.87700
X1.11600 Y0.87500
X1.11500 Y0.87500
X1.11500 Y0.87400
X1.11400 Y0.87400
X1.11400 Y0.87100
X1.11300 Y0.87100
X1.11300 Y0.86600
X1.11200 Y0.86600
X1.11200 Y0.83500
X1.11300 Y0.83500
X1.11300 Y0.83000
X1.11400 Y0.83000
X1.11400 Y0.82700
X1.11500 Y0.82700
X1.11500 Y0.82600
X1.11600 Y0.82600
X1.11600 Y0.82400
X1.11700 Y0.82400
X1.11700 Y0.82300
X1.11800 Y0.82300
X1.11800 Y0.82200
X1.11900 Y0.82200
X1.11900 Y0.82000
X1.12000 Y0.82000
X1.12000 Y0.81900
X1.12200 Y0.81900
X1.12200 Y0.81800
X1.12300 Y0.81800
X1.12300 Y0.81700
X1.12500 Y0.81700
X1.12500 Y0.81600
X1.12700 Y0.81600
X1.12700 Y0.81500
X1.12800 Y0.81500
X1.12800 Y0.81400
X1.13300 Y0.81400
X1.13300 Y0.81300
X1.16600 Y0.81300
X1.16600 Y0.81400
X1.17100 Y0.81400
X1.17100 Y0.81500
X1.17200 Y0.81500
X1.17200 Y0.81600
X1.17400 Y0.81600
X1.17400 Y0.81700
X1.17600 Y0.81700
X1.17600 Y0.81800
X1.17700 Y0.81800
X1.17700 Y0.81900
X1.17900 Y0.81900
X1.17900 Y0.82000
X1.18000 Y0.82000
X1.18000 Y0.82200
X1.18100 Y0.82200
X1.18100 Y0.82300
X1.18200 Y0.82300
X1.18200 Y0.82400
X1.18300 Y0.82400
X1.18300 Y0.82600
X1.18400 Y0.82600
X1.18400 Y0.82700
X1.18500 Y0.82700
X1.18500 Y0.83000
X1.18600 Y0.83000
X1.18600 Y0.83500
X1.18700 Y0.83500
X1.18700 Y0.86600
X1.18600 Y0.86600
X1.18600 Y0.87100
X1.18500 Y0.87100
X1.18500 Y0.87400
X1.18400 Y0.87400
X1.18400 Y0.87500
X1.18300 Y0.87500
X1.18300 Y0.87700
X1.18200 Y0.87700
X1.18200 Y0.87800
X1.18100 Y0.87800
X1.18100 Y0.87900
X1.18000 Y0.87900
X1.18000 Y0.88100
X1.17900 Y0.88100
X1.17900 Y0.88200
X1.17700 Y0.88200
X1.17700 Y0.88300
X1.17600 Y0.88300
X1.17600 Y0.88400
X1.17400 Y0.88400
X1.17400 Y0.88500
X1.17200 Y0.88500
X1.17200 Y0.88600
X1.17100 Y0.88600
X1.17100 Y0.88700
X1.16600 Y0.88700
X1.16600 Y0.88800
X1.13300 Y0.88800
X1.13300 Y0.88700
X1.12800 Y0.88700
X1.12800 Y0.88600
X1.12700 Y0.88600
X1.12700 Y0.88500
X1.12500 Y0.88500
X1.12500 Y0.88400
X1.12300 Y0.88400
X1.12300 Y0.88300
X1.12200 Y0.88300
X1.12200 Y0.88200
X1.12000 Y0.88200
X1.12000 Y0.88100
X1.11900 Y0.88100
X1.11900 Y0.87900
X1.11800 Y0.87900
X1.11800 Y0.87800
X1.11700 Y0.87800
X1.11700 Y0.87700
G04 P0 ( dwell for no time -- G64 should not smooth over this point )
G00 Z0.19685 ( retract )

G00 X0.06200 Y0.87700 ( rapid move to begin. )
G01 Z-0.01969 F1.96850 ( plunge. )
G04 P0 ( dwell for no time -- G64 should not smooth over this point )
X0.06200 Y0.87700
X0.06200 Y0.81200
X0.13800 Y0.81200
X0.13800 Y0.88800
X0.06200 Y0.88800
X0.06200 Y0.87700
G04 P0 ( dwell for no time -- G64 should not smooth over this point )
G00 Z0.19685 ( retract )

G00 X2.16600 Y0.83000 ( rapid move to begin. )
G01 Z-0.01969 F1.96850 ( plunge. )
G04 P0 ( dwell for no time -- G64 should not smooth over this point )
X2.16600 Y0.83000
X2.16500 Y0.83000
X2.16500 Y0.82800
X2.16400 Y0.82800
X2.16400 Y0.82700
X2.16300 Y0.82700
X2.16300 Y0.82500
X2.16200 Y0.82500
X2.16200 Y0.82400
X2.16100 Y0.82400
X2.16100 Y0.81900
X2.16000 Y0.81900
X2.16000 Y0.81400
X2.15900 Y0.81400
X2.15900 Y0.78700
X2.16000 Y0.78700
X2.16000 Y0.78200
X2.16100 Y0.78200
X2.16100 Y0.77700
X2.16200 Y0.77700
X2.16200 Y0.77600
X2.16300 Y0.77600
X2.16300 Y0.77400
X2.16400 Y0.77400
X2.16400 Y0.77300
X2.16500 Y0.77300
X2.16500 Y0.77100
X2.16600 Y0.77100
X2.16600 Y0.77000
X2.16700 Y0.77000
X2.16700 Y0.76900
X2.16800 Y0.76900
X2.16800 Y0.76700
X2.17000 Y0.76700
X2.17000 Y0.76600
X2.17200 Y0.76600
X2.17200 Y0.76500
X2.17300 Y0.76500
X2.17300 Y0.76400
X2.17500 Y0.76400
X2.17500 Y0.76300
X2.17700 Y0.76300
X2.17700 Y0.76200
X2.18000 Y0.76200
X2.18000 Y0.76100
X2.18600 Y0.76100
X2.18600 Y0.76000
X2.21300 Y0.76000
X2.21300 Y0.76100
X2.21900 Y0.76100
X2.21900 Y0.76200
X2.22200 Y0.76200
X2.22200 Y0.76300
X2.22400 Y0.76300
X2.22400 Y0.76400
X2.22600 Y0.76400
X2.22600 Y0.76500
X2.22700 Y0.76500
X2.22700 Y0.76600
X2.22900 Y0.76600
X2.22900 Y0.76700
X2.23100 Y0.76700
X2.23100 Y0.76900
X2.23200 Y0.76900
X2.23200 Y0.77000
X2.23300 Y0.77000
X2.23300 Y0.77100
X2.23400 Y0.77100
X2.23400 Y0.77300
X2.23500 Y0.77300
X2.23500 Y0.77400
X2.23600 Y0.77400
X2.23600 Y0.77600
X2.23700 Y0.77600
X2.23700 Y0.77700
X2.23800 Y0.77700
X2.23800 Y0.78200
X2.23900 Y0.78200
X2.23900 Y0.78700
X2.24000 Y0.78700
X2.24000 Y0.81400
X2.23900 Y0.81400
X2.23900 Y0.81900
X2.23800 Y0.81900
X2.23800 Y0.82400
X2.23700 Y0.82400
X2.23700 Y0.82500
X2.23600 Y0.82500
X2.23600 Y0.82700
X2.23500 Y0.82700
X2.23500 Y0.82800
X2.23400 Y0.82800
X2.23400 Y0.83000
X2.23300 Y0.83000
X2.23300 Y0.83100
X2.23200 Y0.83100
X2.23200 Y0.83200
X2.23100 Y0.83200
X2.23100 Y0.83400
X2.22900 Y0.83400
X2.22900 Y0.83500
X2.22700 Y0.83500
X2.22700 Y0.83600
X2.22500 Y0.83600
X2.22500 Y0.83700
X2.22400 Y0.83700
X2.22400 Y0.83800
X2.22200 Y0.83800
X2.22200 Y0.83900
X2.21900 Y0.83900
X2.21900 Y0.84000
X2.21300 Y0.84000
X2.21300 Y0.84100
X2.18600 Y0.84100
X2.18600 Y0.84000
X2.18000 Y0.84000
X2.18000 Y0.83900
X2.17700 Y0.83900
X2.17700 Y0.83800
X2.17500 Y0.83800
X2.17500 Y0.83700
X2.17400 Y0.83700
X2.17400 Y0.83600
X2.17200 Y0.83600
X2.17200 Y0.83500
X2.17000 Y0.83500
X2.17000 Y0.83400
X2.16800 Y0.83400
X2.16800 Y0.83200
X2.16700 Y0.83200
X2.16700 Y0.83100
X2.16600 Y0.83100
X2.16600 Y0.83000
G04 P0 ( dwell for no time -- G64 should not smooth over this point )
G00 Z0.19685 ( retract )

G00 X1.86600 Y0.83000 ( rapid move to begin. )
G01 Z-0.01969 F1.96850 ( plunge. )
G04 P0 ( dwell for no time -- G64 should not smooth over this point )
X1.86600 Y0.83000
X1.86500 Y0.83000
X1.86500 Y0.82800
X1.86400 Y0.82800
X1.86400 Y0.82700
X1.86300 Y0.82700
X1.86300 Y0.82500
X1.86200 Y0.82500
X1.86200 Y0.82400
X1.86100 Y0.82400
X1.86100 Y0.81900
X1.86000 Y0.81900
X1.86000 Y0.81400
X1.85900 Y0.81400
X1.85900 Y0.78700
X1.86000 Y0.78700
X1.86000 Y0.78200
X1.86100 Y0.78200
X1.86100 Y0.77700
X1.86200 Y0.77700
X1.86200 Y0.77600
X1.86300 Y0.77600
X1.86300 Y0.77400
X1.86400 Y0.77400
X1.86400 Y0.77300
X1.86500 Y0.77300
X1.86500 Y0.77100
X1.86600 Y0.77100
X1.86600 Y0.77000
X1.86700 Y0.77000
X1.86700 Y0.76900
X1.86800 Y0.76900
X1.86800 Y0.76700
X1.87000 Y0.76700
X1.87000 Y0.76600
X1.87200 Y0.76600
X1.87200 Y0.76500
X1.87300 Y0.76500
X1.87300 Y0.76400
X1.87500 Y0.76400
X1.87500 Y0.76300
X1.87700 Y0.76300
X1.87700 Y0.76200
X1.88000 Y0.76200
X1.88000 Y0.76100
X1.88600 Y0.76100
X1.88600 Y0.76000
X1.91300 Y0.76000
X1.91300 Y0.76100
X1.91900 Y0.76100
X1.91900 Y0.76200
X1.92200 Y0.76200
X1.92200 Y0.76300
X1.92400 Y0.76300
X1.92400 Y0.76400
X1.92600 Y0.76400
X1.92600 Y0.76500
X1.92700 Y0.76500
X1.92700 Y0.76600
X1.92900 Y0.76600
X1.92900 Y0.76700
X1.93100 Y0.76700
X1.93100 Y0.76900
X1.93200 Y0.76900
X1.93200 Y0.77000
X1.93300 Y0.77000
X1.93300 Y0.77100
X1.93400 Y0.77100
X1.93400 Y0.77300
X1.93500 Y0.77300
X1.93500 Y0.77400
X1.93600 Y0.77400
X1.93600 Y0.77600
X1.93700 Y0.77600
X1.93700 Y0.77700
X1.93800 Y0.77700
X1.93800 Y0.78200
X1.93900 Y0.78200
X1.93900 Y0.78700
X1.94000 Y0.78700
X1.94000 Y0.81400
X1.93900 Y0.81400
X1.93900 Y0.81900
X1.93800 Y0.81900
X1.93800 Y0.82400
X1.93700 Y0.82400
X1.93700 Y0.82500
X1.93600 Y0.82500
X1.93600 Y0.82700
X1.93500 Y0.82700
X1.93500 Y0.82800
X1.93400 Y0.82800
X1.93400 Y0.83000
X1.93300 Y0.83000
X1.93300 Y0.83100
X1.93200 Y0.83100
X1.93200 Y0.83200
X1.93100 Y0.83200
X1.93100 Y0.83400
X1.92900 Y0.83400
X1.92900 Y0.83500
X1.92700 Y0.83500
X1.92700 Y0.83600
X1.92500 Y0.83600
X1.92500 Y0.83700
X1.92400 Y0.83700
X1.92400 Y0.83800
X1.92200 Y0.83800
X1.92200 Y0.83900
X1.91900 Y0.83900
X1.91900 Y0.84000
X1.91300 Y0.84000
X1.91300 Y0.84100
X1.88600 Y0.84100
X1.88600 Y0.84000
X1.88000 Y0.84000
X1.88000 Y0.83900
X1.87700 Y0.83900
X1.87700 Y0.83800
X1.87500 Y0.83800
X1.87500 Y0.83700
X1.87400 Y0.83700
X1.87400 Y0.83600
X1.87200 Y0.83600
X1.87200 Y0.83500
X1.87000 Y0.83500
X1.87000 Y0.83400
X1.86800 Y0.83400
X1.86800 Y0.83200
X1.86700 Y0.83200
X1.86700 Y0.83100
X1.86600 Y0.83100
X1.86600 Y0.83000
G04 P0 ( dwell for no time -- G64 should not smooth over this point )
G00 Z0.19685 ( retract )

G00 X0.56600 Y0.78000 ( rapid move to begin. )
G01 Z-0.01969 F1.96850 ( plunge. )
G04 P0 ( dwell for no time -- G64 should not smooth over this point )
X0.56600 Y0.78000
X0.56500 Y0.78000
X0.56500 Y0.77800
X0.56400 Y0.77800
X0.56400 Y0.77700
X0.56300 Y0.77700
X0.56300 Y0.77500
X0.56200 Y0.77500
X0.56200 Y0.77400
X0.56100 Y0.77400
X0.56100 Y0.76900
X0.56000 Y0.76900
X0.56000 Y0.76400
X0.55900 Y0.76400
X0.55900 Y0.73700
X0.56000 Y0.73700
X0.56000 Y0.73200
X0.56100 Y0.73200
X0.56100 Y0.72700
X0.56200 Y0.72700
X0.56200 Y0.72600
X0.56300 Y0.72600
X0.56300 Y0.72400
X0.56400 Y0.72400
X0.56400 Y0.72300
X0.56500 Y0.72300
X0.56500 Y0.72100
X0.56600 Y0.72100
X0.56600 Y0.72000
X0.56700 Y0.72000
X0.56700 Y0.71900
X0.56800 Y0.71900
X0.56800 Y0.71700
X0.57000 Y0.71700
X0.57000 Y0.71600
X0.57200 Y0.71600
X0.57200 Y0.71500
X0.57300 Y0.71500
X0.57300 Y0.71400
X0.57500 Y0.71400
X0.57500 Y0.71300
X0.57700 Y0.71300
X0.57700 Y0.71200
X0.58000 Y0.71200
X0.58000 Y0.71100
X0.58600 Y0.71100
X0.58600 Y0.71000
X0.61300 Y0.71000
X0.61300 Y0.71100
X0.61900 Y0.71100
X0.61900 Y0.71200
X0.62200 Y0.71200
X0.62200 Y0.71300
X0.62400 Y0.71300
X0.62400 Y0.71400
X0.62600 Y0.71400
X0.62600 Y0.71500
X0.62700 Y0.71500
X0.62700 Y0.71600
X0.62900 Y0.71600
X0.62900 Y0.71700
X0.63100 Y0.71700
X0.63100 Y0.71900
X0.63200 Y0.71900
X0.63200 Y0.72000
X0.63300 Y0.72000
X0.63300 Y0.72100
X0.63400 Y0.72100
X0.63400 Y0.72300
X0.63500 Y0.72300
X0.63500 Y0.72400
X0.63600 Y0.72400
X0.63600 Y0.72600
X0.63700 Y0.72600
X0.63700 Y0.72700
X0.63800 Y0.72700
X0.63800 Y0.73200
X0.63900 Y0.73200
X0.63900 Y0.73700
X0.64000 Y0.73700
X0.64000 Y0.76400
X0.63900 Y0.76400
X0.63900 Y0.76900
X0.63800 Y0.76900
X0.63800 Y0.77400
X0.63700 Y0.77400
X0.63700 Y0.77500
X0.63600 Y0.77500
X0.63600 Y0.77700
X0.63500 Y0.77700
X0.63500 Y0.77800
X0.63400 Y0.77800
X0.63400 Y0.78000
X0.63300 Y0.78000
X0.63300 Y0.78100
X0.63200 Y0.78100
X0.63200 Y0.78200
X0.63100 Y0.78200
X0.63100 Y0.78400
X0.62900 Y0.78400
X0.62900 Y0.78500
X0.62700 Y0.78500
X0.62700 Y0.78600
X0.62500 Y0.78600
X0.62500 Y0.78700
X0.62400 Y0.78700
X0.62400 Y0.78800
X0.62200 Y0.78800
X0.62200 Y0.78900
X0.61900 Y0.78900
X0.61900 Y0.79000
X0.61300 Y0.79000
X0.61300 Y0.79100
X0.58600 Y0.79100
X0.58600 Y0.79000
X0.58000 Y0.79000
X0.58000 Y0.78900
X0.57700 Y0.78900
X0.57700 Y0.78800
X0.57500 Y0.78800
X0.57500 Y0.78700
X0.57400 Y0.78700
X0.57400 Y0.78600
X0.57200 Y0.78600
X0.57200 Y0.78500
X0.57000 Y0.78500
X0.57000 Y0.78400
X0.56800 Y0.78400
X0.56800 Y0.78200
X0.56700 Y0.78200
X0.56700 Y0.78100
X0.56600 Y0.78100
X0.56600 Y0.78000
G04 P0 ( dwell for no time -- G64 should not smooth over this point )
G00 Z0.19685 ( retract )

G00 X0.26600 Y0.78000 ( rapid move to begin. )
G01 Z-0.01969 F1.96850 ( plunge. )
G04 P0 ( dwell for no time -- G64 should not smooth over this point )
X0.26600 Y0.78000
X0.26500 Y0.78000
X0.26500 Y0.77800
X0.26400 Y0.77800
X0.26400 Y0.77700
X0.26300 Y0.77700
X0.26300 Y0.77500
X0.26200 Y0.77500
X0.26200 Y0.77400
X0.26100 Y0.77400
X0.26100 Y0.76900
X0.26000 Y0.76900
X0.26000 Y0.76400
X0.25900 Y0.76400
X0.25900 Y0.73700
X0.26000 Y0.73700
X0.26000 Y0.73200
X0.26100 Y0.73200
X0.26100 Y0.72700
X0.26200 Y0.72700
X0.26200 Y0.72600
X0.26300 Y0.72600
X0.26300 Y0.72400
X0.26400 Y0.72400
X0.26400 Y0.72300
X0.26500 Y0.72300
X0.26500 Y0.72100
X0.26600 Y0.72100
X0.26600 Y0.72000
X0.26700 Y0.72000
X0.26700 Y0.71900
X0.26800 Y0.71900
X0.26800 Y0.71700
X0.27000 Y0.71700
X0.27000 Y0.71600
X0.27200 Y0.71600
X0.27200 Y0.71500
X0.27300 Y0.71500
X0.27300 Y0.71400
X0.27500 Y0.71400
X0.27500 Y0.71300
X0.27700 Y0.71300
X0.27700 Y0.71200
X0.28000 Y0.71200
X0.28000 Y0.71100
X0.28600 Y0.71100
X0.28600 Y0.71000
X0.31300 Y0.71000
X0.31300 Y0.71100
X0.31900 Y0.71100
X0.31900 Y0.71200
X0.32200 Y0.71200
X0.32200 Y0.71300
X0.32400 Y0.71300
X0.32400 Y0.71400
X0.32600 Y0.71400
X0.32600 Y0.71500
X0.32700 Y0.71500
X0.32700 Y0.71600
X0.32900 Y0.71600
X0.32900 Y0.71700
X0.33100 Y0.71700
X0.33100 Y0.71900
X0.33200 Y0.71900
X0.33200 Y0.72000
X0.33300 Y0.72000
X0.33300 Y0.72100
X0.33400 Y0.72100
X0.33400 Y0.72300
X0.33500 Y0.72300
X0.33500 Y0.72400
X0.33600 Y0.72400
X0.33600 Y0.72600
X0.33700 Y0.72600
X0.33700 Y0.72700
X0.33800 Y0.72700
X0.33800 Y0.73200
X0.33900 Y0.73200
X0.33900 Y0.73700
X0.34000 Y0.73700
X0.34000 Y0.76400
X0.33900 Y0.76400
X0.33900 Y0.76900
X0.33800 Y0.76900
X0.33800 Y0.77400
X0.33700 Y0.77400
X0.33700 Y0.77500
X0.33600 Y0.77500
X0.33600 Y0.77700
X0.33500 Y0.77700
X0.33500 Y0.77800
X0.33400 Y0.77800
X0.33400 Y0.78000
X0.33300 Y0.78000
X0.33300 Y0.78100
X0.33200 Y0.78100
X0.33200 Y0.78200
X0.33100 Y0.78200
X0.33100 Y0.78400
X0.32900 Y0.78400
X0.32900 Y0.78500
X0.32700 Y0.78500
X0.32700 Y0.78600
X0.32500 Y0.78600
X0.32500 Y0.78700
X0.32400 Y0.78700
X0.32400 Y0.78800
X0.32200 Y0.78800
X0.32200 Y0.78900
X0.31900 Y0.78900
X0.31900 Y0.79000
X0.31300 Y0.79000
X0.31300 Y0.79100
X0.28600 Y0.79100
X0.28600 Y0.79000
X0.28000 Y0.79000
X0.28000 Y0.78900
X0.27700 Y0.78900
X0.27700 Y0.78800
X0.27500 Y0.78800
X0.27500 Y0.78700
X0.27400 Y0.78700
X0.27400 Y0.78600
X0.27200 Y0.78600
X0.27200 Y0.78500
X0.27000 Y0.78500
X0.27000 Y0.78400
X0.26800 Y0.78400
X0.26800 Y0.78200
X0.26700 Y0.78200
X0.26700 Y0.78100
X0.26600 Y0.78100
X0.26600 Y0.78000
G04 P0 ( dwell for no time -- G64 should not smooth over this point )
G00 Z0.19685 ( retract )

G00 X0.06700 Y0.77700 ( rapid move to begin. )
G01 Z-0.01969 F1.96850 ( plunge. )
G04 P0 ( dwell for no time -- G64 should not smooth over this point )
X0.06700 Y0.77700
X0.06600 Y0.77700
X0.06600 Y0.77500
X0.06500 Y0.77500
X0.06500 Y0.77400
X0.06400 Y0.77400
X0.06400 Y0.77100
X0.06300 Y0.77100
X0.06300 Y0.76600
X0.06200 Y0.76600
X0.06200 Y0.73500
X0.06300 Y0.73500
X0.06300 Y0.73000
X0.06400 Y0.73000
X0.06400 Y0.72700
X0.06500 Y0.72700
X0.06500 Y0.72600
X0.06600 Y0.72600
X0.06600 Y0.72400
X0.06700 Y0.72400
X0.06700 Y0.72300
X0.06800 Y0.72300
X0.06800 Y0.72200
X0.06900 Y0.72200
X0.06900 Y0.72000
X0.07000 Y0.72000
X0.07000 Y0.71900
X0.07200 Y0.71900
X0.07200 Y0.71800
X0.07300 Y0.71800
X0.07300 Y0.71700
X0.07500 Y0.71700
X0.07500 Y0.71600
X0.07700 Y0.71600
X0.07700 Y0.71500
X0.07800 Y0.71500
X0.07800 Y0.71400
X0.08300 Y0.71400
X0.08300 Y0.71300
X0.11600 Y0.71300
X0.11600 Y0.71400
X0.12100 Y0.71400
X0.12100 Y0.71500
X0.12200 Y0.71500
X0.12200 Y0.71600
X0.12400 Y0.71600
X0.12400 Y0.71700
X0.12600 Y0.71700
X0.12600 Y0.71800
X0.12700 Y0.71800
X0.12700 Y0.71900
X0.12900 Y0.71900
X0.12900 Y0.72000
X0.13000 Y0.72000
X0.13000 Y0.72200
X0.13100 Y0.72200
X0.13100 Y0.72300
X0.13200 Y0.72300
X0.13200 Y0.72400
X0.13300 Y0.72400
X0.13300 Y0.72600
X0.13400 Y0.72600
X0.13400 Y0.72700
X0.13500 Y0.72700
X0.13500 Y0.73000
X0.13600 Y0.73000
X0.13600 Y0.73500
X0.13700 Y0.73500
X0.13700 Y0.76600
X0.13600 Y0.76600
X0.13600 Y0.77100
X0.13500 Y0.77100
X0.13500 Y0.77400
X0.13400 Y0.77400
X0.13400 Y0.77500
X0.13300 Y0.77500
X0.13300 Y0.77700
X0.13200 Y0.77700
X0.13200 Y0.77800
X0.13100 Y0.77800
X0.13100 Y0.77900
X0.13000 Y0.77900
X0.13000 Y0.78100
X0.12900 Y0.78100
X0.12900 Y0.78200
X0.12700 Y0.78200
X0.12700 Y0.78300
X0.12600 Y0.78300
X0.12600 Y0.78400
X0.12400 Y0.78400
X0.12400 Y0.78500
X0.12200 Y0.78500
X0.12200 Y0.78600
X0.12100 Y0.78600
X0.12100 Y0.78700
X0.11600 Y0.78700
X0.11600 Y0.78800
X0.08300 Y0.78800
X0.08300 Y0.78700
X0.07800 Y0.78700
X0.07800 Y0.78600
X0.07700 Y0.78600
X0.07700 Y0.78500
X0.07500 Y0.78500
X0.07500 Y0.78400
X0.07300 Y0.78400
X0.07300 Y0.78300
X0.07200 Y0.78300
X0.07200 Y0.78200
X0.07000 Y0.78200
X0.07000 Y0.78100
X0.06900 Y0.78100
X0.06900 Y0.77900
X0.06800 Y0.77900
X0.06800 Y0.77800
X0.06700 Y0.77800
X0.06700 Y0.77700
G04 P0 ( dwell for no time -- G64 should not smooth over this point )
G00 Z0.19685 ( retract )

G00 X2.16600 Y0.73000 ( rapid move to begin. )
G01 Z-0.01969 F1.96850 ( plunge. )
G04 P0 ( dwell for no time -- G64 should not smooth over this point )
X2.16600 Y0.73000
X2.16500 Y0.73000
X2.16500 Y0.72800
X2.16400 Y0.72800
X2.16400 Y0.72700
X2.16300 Y0.72700
X2.16300 Y0.72500
X2.16200 Y0.72500
X2.16200 Y0.72400
X2.16100 Y0.72400
X2.16100 Y0.71900
X2.16000 Y0.71900
X2.16000 Y0.71400
X2.15900 Y0.71400
X2.15900 Y0.68700
X2.16000 Y0.68700
X2.16000 Y0.68200
X2.16100 Y0.68200
X2.16100 Y0.67700
X2.16200 Y0.67700
X2.16200 Y0.67600
X2.16300 Y0.67600
X2.16300 Y0.67400
X2.16400 Y0.67400
X2.16400 Y0.67300
X2.16500 Y0.67300
X2.16500 Y0.67100
X2.16600 Y0.67100
X2.16600 Y0.67000
X2.16700 Y0.67000
X2.16700 Y0.66900
X2.16800 Y0.66900
X2.16800 Y0.66700
X2.17000 Y0.66700
X2.17000 Y0.66600
X2.17200 Y0.66600
X2.17200 Y0.66500
X2.17300 Y0.66500
X2.17300 Y0.66400
X2.17500 Y0.66400
X2.17500 Y0.66300
X2.17700 Y0.66300
X2.17700 Y0.66200
X2.18000 Y0.66200
X2.18000 Y0.66100
X2.18600 Y0.66100
X2.18600 Y0.66000
X2.21300 Y0.66000
X2.21300 Y0.66100
X2.21900 Y0.66100
X2.21900 Y0.66200
X2.22200 Y0.66200
X2.22200 Y0.66300
X2.22400 Y0.66300
X2.22400 Y0.66400
X2.22600 Y0.66400
X2.22600 Y0.66500
X2.22700 Y0.66500
X2.22700 Y0.66600
X2.22900 Y0.66600
X2.22900 Y0.66700
X2.23100 Y0.66700
X2.23100 Y0.66900
X2.23200 Y0.66900
X2.23200 Y0.67000
X2.23300 Y0.67000
X2.23300 Y0.67100
X2.23400 Y0.67100
X2.23400 Y0.67300
X2.23500 Y0.67300
X2.23500 Y0.67400
X2.23600 Y0.67400
X2.23600 Y0.67600
X2.23700 Y0.67600
X2.23700 Y0.67700
X2.23800 Y0.67700
X2.23800 Y0.68200
X2.23900 Y0.68200
X2.23900 Y0.68700
X2.24000 Y0.68700
X2.24000 Y0.71400
X2.23900 Y0.71400
X2.23900 Y0.71900
X2.23800 Y0.71900
X2.23800 Y0.72400
X2.23700 Y0.72400
X2.23700 Y0.72500
X2.23600 Y0.72500
X2.23600 Y0.72700
X2.23500 Y0.72700
X2.23500 Y0.72800
X2.23400 Y0.72800
X2.23400 Y0.73000
X2.23300 Y0.73000
X2.23300 Y0.73100
X2.23200 Y0.73100
X2.23200 Y0.73200
X2.23100 Y0.73200
X2.23100 Y0.73400
X2.22900 Y0.73400
X2.22900 Y0.73500
X2.22700 Y0.73500
X2.22700 Y0.73600
X2.22500 Y0.73600
X2.22500 Y0.73700
X2.22400 Y0.73700
X2.22400 Y0.73800
X2.22200 Y0.73800
X2.22200 Y0.73900
X2.21900 Y0.73900
X2.21900 Y0.74000
X2.21300 Y0.74000
X2.21300 Y0.74100
X2.18600 Y0.74100
X2.18600 Y0.74000
X2.18000 Y0.74000
X2.18000 Y0.73900
X2.17700 Y0.73900
X2.17700 Y0.73800
X2.17500 Y0.73800
X2.17500 Y0.73700
X2.17400 Y0.73700
X2.17400 Y0.73600
X2.17200 Y0.73600
X2.17200 Y0.73500
X2.17000 Y0.73500
X2.17000 Y0.73400
X2.16800 Y0.73400
X2.16800 Y0.73200
X2.16700 Y0.73200
X2.16700 Y0.73100
X2.16600 Y0.73100
X2.16600 Y0.73000
G04 P0 ( dwell for no time -- G64 should not smooth over this point )
G00 Z0.19685 ( retract )

G00 X1.86600 Y0.73000 ( rapid move to begin. )
G01 Z-0.01969 F1.96850 ( plunge. )
G04 P0 ( dwell for no time -- G64 should not smooth over this point )
X1.86600 Y0.73000
X1.86500 Y0.73000
X1.86500 Y0.72800
X1.86400 Y0.72800
X1.86400 Y0.72700
X1.86300 Y0.72700
X1.86300 Y0.72500
X1.86200 Y0.72500
X1.86200 Y0.72400
X1.86100 Y0.72400
X1.86100 Y0.71900
X1.86000 Y0.71900
X1.86000 Y0.71400
X1.85900 Y0.71400
X1.85900 Y0.68700
X1.86000 Y0.68700
X1.86000 Y0.68200
X1.86100 Y0.68200
X1.86100 Y0.67700
X1.86200 Y0.67700
X1.86200 Y0.67600
X1.86300 Y0.67600
X1.86300 Y0.67400
X1.86400 Y0.67400
X1.86400 Y0.67300
X1.86500 Y0.67300
X1.86500 Y0.67100
X1.86600 Y0.67100
X1.86600 Y0.67000
X1.86700 Y0.67000
X1.86700 Y0.66900
X1.86800 Y0.66900
X1.86800 Y0.66700
X1.87000 Y0.66700
X1.87000 Y0.66600
X1.87200 Y0.66600
X1.87200 Y0.66500
X1.87300 Y0.66500
X1.87300 Y0.66400
X1.87500 Y0.66400
X1.87500 Y0.66300
X1.87700 Y0.66300
X1.87700 Y0.66200
X1.88000 Y0.66200
X1.88000 Y0.66100
X1.88600 Y0.66100
X1.88600 Y0.66000
X1.91300 Y0.66000
X1.91300 Y0.66100
X1.91900 Y0.66100
X1.91900 Y0.66200
X1.92200 Y0.66200
X1.92200 Y0.66300
X1.92400 Y0.66300
X1.92400 Y0.66400
X1.92600 Y0.66400
X1.92600 Y0.66500
X1.92700 Y0.66500
X1.92700 Y0.66600
X1.92900 Y0.66600
X1.92900 Y0.66700
X1.93100 Y0.66700
X1.93100 Y0.66900
X1.93200 Y0.66900
X1.93200 Y0.67000
X1.93300 Y0.67000
X1.93300 Y0.67100
X1.93400 Y0.67100
X1.93400 Y0.67300
X1.93500 Y0.67300
X1.93500 Y0.67400
X1.93600 Y0.67400
X1.93600 Y0.67600
X1.93700 Y0.67600
X1.93700 Y0.67700
X1.93800 Y0.67700
X1.93800 Y0.68200
X1.93900 Y0.68200
X1.93900 Y0.68700
X1.94000 Y0.68700
X1.94000 Y0.71400
X1.93900 Y0.71400
X1.93900 Y0.71900
X1.93800 Y0.71900
X1.93800 Y0.72400
X1.93700 Y0.72400
X1.93700 Y0.72500
X1.93600 Y0.72500
X1.93600 Y0.72700
X1.93500 Y0.72700
X1.93500 Y0.72800
X1.93400 Y0.72800
X1.93400 Y0.73000
X1.93300 Y0.73000
X1.93300 Y0.73100
X1.93200 Y0.73100
X1.93200 Y0.73200
X1.93100 Y0.73200
X1.93100 Y0.73400
X1.92900 Y0.73400
X1.92900 Y0.73500
X1.92700 Y0.73500
X1.92700 Y0.73600
X1.92500 Y0.73600
X1.92500 Y0.73700
X1.92400 Y0.73700
X1.92400 Y0.73800
X1.92200 Y0.73800
X1.92200 Y0.73900
X1.91900 Y0.73900
X1.91900 Y0.74000
X1.91300 Y0.74000
X1.91300 Y0.74100
X1.88600 Y0.74100
X1.88600 Y0.74000
X1.88000 Y0.74000
X1.88000 Y0.73900
X1.87700 Y0.73900
X1.87700 Y0.73800
X1.87500 Y0.73800
X1.87500 Y0.73700
X1.87400 Y0.73700
X1.87400 Y0.73600
X1.87200 Y0.73600
X1.87200 Y0.73500
X1.87000 Y0.73500
X1.87000 Y0.73400
X1.86800 Y0.73400
X1.86800 Y0.73200
X1.86700 Y0.73200
X1.86700 Y0.73100
X1.86600 Y0.73100
X1.86600 Y0.73000
G04 P0 ( dwell for no time -- G64 should not smooth over this point )
G00 Z0.19685 ( retract )

G00 X1.45900 Y0.73000 ( rapid move to begin. )
G01 Z-0.01969 F1.96850 ( plunge. )
G04 P0 ( dwell for no time -- G64 should not smooth over this point )
X1.45900 Y0.73000
X1.45900 Y0.66000
X1.54000 Y0.66000
X1.54000 Y0.74100
X1.45900 Y0.74100
X1.45900 Y0.73000
G04 P0 ( dwell for no time -- G64 should not smooth over this point )
G00 Z0.19685 ( retract )

G00 X0.56600 Y0.68000 ( rapid move to begin. )
G01 Z-0.01969 F1.96850 ( plunge. )
G04 P0 ( dwell for no time -- G64 should not smooth over this point )
X0.56600 Y0.68000
X0.56500 Y0.68000
X0.56500 Y0.67800
X0.56400 Y0.67800
X0.56400 Y0.67700
X0.56300 Y0.67700
X0.56300 Y0.67500
X0.56200 Y0.67500
X0.56200 Y0.67400
X0.56100 Y0.67400
X0.56100 Y0.66900
X0.56000 Y0.66900
X0.56000 Y0.66400
X0.55900 Y0.66400
X0.55900 Y0.63700
X0.56000 Y0.63700
X0.56000 Y0.63200
X0.56100 Y0.63200
X0.56100 Y0.62700
X0.56200 Y0.62700
X0.56200 Y0.62600
X0.56300 Y0.62600
X0.56300 Y0.62400
X0.56400 Y0.62400
X0.56400 Y0.62300
X0.56500 Y0.62300
X0.56500 Y0.62100
X0.56600 Y0.62100
X0.56600 Y0.62000
X0.56700 Y0.62000
X0.56700 Y0.61900
X0.56800 Y0.61900
X0.56800 Y0.61700
X0.57000 Y0.61700
X0.57000 Y0.61600
X0.57200 Y0.61600
X0.57200 Y0.61500
X0.57300 Y0.61500
X0.57300 Y0.61400
X0.57500 Y0.61400
X0.57500 Y0.61300
X0.57700 Y0.61300
X0.57700 Y0.61200
X0.58000 Y0.61200
X0.58000 Y0.61100
X0.58600 Y0.61100
X0.58600 Y0.61000
X0.61300 Y0.61000
X0.61300 Y0.61100
X0.61900 Y0.61100
X0.61900 Y0.61200
X0.62200 Y0.61200
X0.62200 Y0.61300
X0.62400 Y0.61300
X0.62400 Y0.61400
X0.62600 Y0.61400
X0.62600 Y0.61500
X0.62700 Y0.61500
X0.62700 Y0.61600
X0.62900 Y0.61600
X0.62900 Y0.61700
X0.63100 Y0.61700
X0.63100 Y0.61900
X0.63200 Y0.61900
X0.63200 Y0.62000
X0.63300 Y0.62000
X0.63300 Y0.62100
X0.63400 Y0.62100
X0.63400 Y0.62300
X0.63500 Y0.62300
X0.63500 Y0.62400
X0.63600 Y0.62400
X0.63600 Y0.62600
X0.63700 Y0.62600
X0.63700 Y0.62700
X0.63800 Y0.62700
X0.63800 Y0.63200
X0.63900 Y0.63200
X0.63900 Y0.63700
X0.64000 Y0.63700
X0.64000 Y0.66400
X0.63900 Y0.66400
X0.63900 Y0.66900
X0.63800 Y0.66900
X0.63800 Y0.67400
X0.63700 Y0.67400
X0.63700 Y0.67500
X0.63600 Y0.67500
X0.63600 Y0.67700
X0.63500 Y0.67700
X0.63500 Y0.67800
X0.63400 Y0.67800
X0.63400 Y0.68000
X0.63300 Y0.68000
X0.63300 Y0.68100
X0.63200 Y0.68100
X0.63200 Y0.68200
X0.63100 Y0.68200
X0.63100 Y0.68400
X0.62900 Y0.68400
X0.62900 Y0.68500
X0.62700 Y0.68500
X0.62700 Y0.68600
X0.62500 Y0.68600
X0.62500 Y0.68700
X0.62400 Y0.68700
X0.62400 Y0.68800
X0.62200 Y0.68800
X0.62200 Y0.68900
X0.61900 Y0.68900
X0.61900 Y0.69000
X0.61300 Y0.69000
X0.61300 Y0.69100
X0.58600 Y0.69100
X0.58600 Y0.69000
X0.58000 Y0.69000
X0.58000 Y0.68900
X0.57700 Y0.68900
X0.57700 Y0.68800
X0.57500 Y0.68800
X0.57500 Y0.68700
X0.57400 Y0.68700
X0.57400 Y0.68600
X0.57200 Y0.68600
X0.57200 Y0.68500
X0.57000 Y0.68500
X0.57000 Y0.68400
X0.56800 Y0.68400
X0.56800 Y0.68200
X0.56700 Y0.68200
X0.56700 Y0.68100
X0.56600 Y0.68100
X0.56600 Y0.68000
G04 P0 ( dwell for no time -- G64 should not smooth over this point )
G00 Z0.19685 ( retract )

G00 X0.26600 Y0.68000 ( rapid move to begin. )
G01 Z-0.01969 F1.96850 ( plunge. )
G04 P0 ( dwell for no time -- G64 should not smooth over this point )
X0.26600 Y0.68000
X0.26500 Y0.68000
X0.26500 Y0.67800
X0.26400 Y0.67800
X0.26400 Y0.67700
X0.26300 Y0.67700
X0.26300 Y0.67500
X0.26200 Y0.67500
X0.26200 Y0.67400
X0.26100 Y0.67400
X0.26100 Y0.66900
X0.26000 Y0.66900
X0.26000 Y0.66400
X0.25900 Y0.66400
X0.25900 Y0.63700
X0.26000 Y0.63700
X0.26000 Y0.63200
X0.26100 Y0.63200
X0.26100 Y0.62700
X0.26200 Y0.62700
X0.26200 Y0.62600
X0.26300 Y0.62600
X0.26300 Y0.62400
X0.26400 Y0.62400
X0.26400 Y0.62300
X0.26500 Y0.62300
X0.26500 Y0.62100
X0.26600 Y0.62100
X0.26600 Y0.62000
X0.26700 Y0.62000
X0.26700 Y0.61900
X0.26800 Y0.61900
X0.26800 Y0.61700
X0.27000 Y0.61700
X0.27000 Y0.61600
X0.27200 Y0.61600
X0.27200 Y0.61500
X0.27300 Y0.61500
X0.27300 Y0.61400
X0.27500 Y0.61400
X0.27500 Y0.61300
X0.27700 Y0.61300
X0.27700 Y0.61200
X0.28000 Y0.61200
X0.28000 Y0.61100
X0.28600 Y0.61100
X0.28600 Y0.61000
X0.31300 Y0.61000
X0.31300 Y0.61100
X0.31900 Y0.61100
X0.31900 Y0.61200
X0.32200 Y0.61200
X0.32200 Y0.61300
X0.32400 Y0.61300
X0.32400 Y0.61400
X0.32600 Y0.61400
X0.32600 Y0.61500
X0.32700 Y0.61500
X0.32700 Y0.61600
X0.32900 Y0.61600
X0.32900 Y0.61700
X0.33100 Y0.61700
X0.33100 Y0.61900
X0.33200 Y0.61900
X0.33200 Y0.62000
X0.33300 Y0.62000
X0.33300 Y0.62100
X0.33400 Y0.62100
X0.33400 Y0.62300
X0.33500 Y0.62300
X0.33500 Y0.62400
X0.33600 Y0.62400
X0.33600 Y0.62600
X0.33700 Y0.62600
X0.33700 Y0.62700
X0.33800 Y0.62700
X0.33800 Y0.63200
X0.33900 Y0.63200
X0.33900 Y0.63700
X0.34000 Y0.63700
X0.34000 Y0.66400
X0.33900 Y0.66400
X0.33900 Y0.66900
X0.33800 Y0.66900
X0.33800 Y0.67400
X0.33700 Y0.67400
X0.33700 Y0.67500
X0.33600 Y0.67500
X0.33600 Y0.67700
X0.33500 Y0.67700
X0.33500 Y0.67800
X0.33400 Y0.67800
X0.33400 Y0.68000
X0.33300 Y0.68000
X0.33300 Y0.68100
X0.33200 Y0.68100
X0.33200 Y0.68200
X0.33100 Y0.68200
X0.33100 Y0.68400
X0.32900 Y0.68400
X0.32900 Y0.68500
X0.32700 Y0.68500
X0.32700 Y0.68600
X0.32500 Y0.68600
X0.32500 Y0.68700
X0.32400 Y0.68700
X0.32400 Y0.68800
X0.32200 Y0.68800
X0.32200 Y0.68900
X0.31900 Y0.68900
X0.31900 Y0.69000
X0.31300 Y0.69000
X0.31300 Y0.69100
X0.28600 Y0.69100
X0.28600 Y0.69000
X0.28000 Y0.69000
X0.28000 Y0.68900
X0.27700 Y0.68900
X0.27700 Y0.68800
X0.27500 Y0.68800
X0.27500 Y0.68700
X0.27400 Y0.68700
X0.27400 Y0.68600
X0.27200 Y0.68600
X0.27200 Y0.68500
X0.27000 Y0.68500
X0.27000 Y0.68400
X0.26800 Y0.68400
X0.26800 Y0.68200
X0.26700 Y0.68200
X0.26700 Y0.68100
X0.26600 Y0.68100
X0.26600 Y0.68000
G04 P0 ( dwell for no time -- G64 should not smooth over this point )
G00 Z0.19685 ( retract )

G00 X1.46600 Y0.63000 ( rapid move to begin. )
G01 Z-0.01969 F1.96850 ( plunge. )
G04 P0 ( dwell for no time -- G64 should not smooth over this point )
X1.46600 Y0.63000
X1.46500 Y0.63000
X1.46500 Y0.62800
X1.46400 Y0.62800
X1.46400 Y0.62700
X1.46300 Y0.62700
X1.46300 Y0.62500
X1.46200 Y0.62500
X1.46200 Y0.62400
X1.46100 Y0.62400
X1.46100 Y0.61900
X1.46000 Y0.61900
X1.46000 Y0.61400
X1.45900 Y0.61400
X1.45900 Y0.58700
X1.46000 Y0.58700
X1.46000 Y0.58200
X1.46100 Y0.58200
X1.46100 Y0.57700
X1.46200 Y0.57700
X1.46200 Y0.57600
X1.46300 Y0.57600
X1.46300 Y0.57400
X1.46400 Y0.57400
X1.46400 Y0.57300
X1.46500 Y0.57300
X1.46500 Y0.57100
X1.46600 Y0.57100
X1.46600 Y0.57000
X1.46700 Y0.57000
X1.46700 Y0.56900
X1.46800 Y0.56900
X1.46800 Y0.56700
X1.47000 Y0.56700
X1.47000 Y0.56600
X1.47200 Y0.56600
X1.47200 Y0.56500
X1.47300 Y0.56500
X1.47300 Y0.56400
X1.47500 Y0.56400
X1.47500 Y0.56300
X1.47700 Y0.56300
X1.47700 Y0.56200
X1.48000 Y0.56200
X1.48000 Y0.56100
X1.48600 Y0.56100
X1.48600 Y0.56000
X1.51300 Y0.56000
X1.51300 Y0.56100
X1.51900 Y0.56100
X1.51900 Y0.56200
X1.52200 Y0.56200
X1.52200 Y0.56300
X1.52400 Y0.56300
X1.52400 Y0.56400
X1.52600 Y0.56400
X1.52600 Y0.56500
X1.52700 Y0.56500
X1.52700 Y0.56600
X1.52900 Y0.56600
X1.52900 Y0.56700
X1.53100 Y0.56700
X1.53100 Y0.56900
X1.53200 Y0.56900
X1.53200 Y0.57000
X1.53300 Y0.57000
X1.53300 Y0.57100
X1.53400 Y0.57100
X1.53400 Y0.57300
X1.53500 Y0.57300
X1.53500 Y0.57400
X1.53600 Y0.57400
X1.53600 Y0.57600
X1.53700 Y0.57600
X1.53700 Y0.57700
X1.53800 Y0.57700
X1.53800 Y0.58200
X1.53900 Y0.58200
X1.53900 Y0.58700
X1.54000 Y0.58700
X1.54000 Y0.61400
X1.53900 Y0.61400
X1.53900 Y0.61900
X1.53800 Y0.61900
X1.53800 Y0.62400
X1.53700 Y0.62400
X1.53700 Y0.62500
X1.53600 Y0.62500
X1.53600 Y0.62700
X1.53500 Y0.62700
X1.53500 Y0.62800
X1.53400 Y0.62800
X1.53400 Y0.63000
X1.53300 Y0.63000
X1.53300 Y0.63100
X1.53200 Y0.63100
X1.53200 Y0.63200
X1.53100 Y0.63200
X1.53100 Y0.63400
X1.52900 Y0.63400
X1.52900 Y0.63500
X1.52700 Y0.63500
X1.52700 Y0.63600
X1.52500 Y0.63600
X1.52500 Y0.63700
X1.52400 Y0.63700
X1.52400 Y0.63800
X1.52200 Y0.63800
X1.52200 Y0.63900
X1.51900 Y0.63900
X1.51900 Y0.64000
X1.51300 Y0.64000
X1.51300 Y0.64100
X1.48600 Y0.64100
X1.48600 Y0.64000
X1.48000 Y0.64000
X1.48000 Y0.63900
X1.47700 Y0.63900
X1.47700 Y0.63800
X1.47500 Y0.63800
X1.47500 Y0.63700
X1.47400 Y0.63700
X1.47400 Y0.63600
X1.47200 Y0.63600
X1.47200 Y0.63500
X1.47000 Y0.63500
X1.47000 Y0.63400
X1.46800 Y0.63400
X1.46800 Y0.63200
X1.46700 Y0.63200
X1.46700 Y0.63100
X1.46600 Y0.63100
X1.46600 Y0.63000
G04 P0 ( dwell for no time -- G64 should not smooth over this point )
G00 Z0.19685 ( retract )

G00 X2.25900 Y0.58000 ( rapid move to begin. )
G01 Z-0.01969 F1.96850 ( plunge. )
G04 P0 ( dwell for no time -- G64 should not smooth over this point )
X2.25900 Y0.58000
X2.25900 Y0.51000
X2.34000 Y0.51000
X2.34000 Y0.59100
X2.25900 Y0.59100
X2.25900 Y0.58000
G04 P0 ( dwell for no time -- G64 should not smooth over this point )
G00 Z0.19685 ( retract )

G00 X2.16600 Y0.58000 ( rapid move to begin. )
G01 Z-0.01969 F1.96850 ( plunge. )
G04 P0 ( dwell for no time -- G64 should not smooth over this point )
X2.16600 Y0.58000
X2.16500 Y0.58000
X2.16500 Y0.57800
X2.16400 Y0.57800
X2.16400 Y0.57700
X2.16300 Y0.57700
X2.16300 Y0.57500
X2.16200 Y0.57500
X2.16200 Y0.57400
X2.16100 Y0.57400
X2.16100 Y0.56900
X2.16000 Y0.56900
X2.16000 Y0.56400
X2.15900 Y0.56400
X2.15900 Y0.53700
X2.16000 Y0.53700
X2.16000 Y0.53200
X2.16100 Y0.53200
X2.16100 Y0.52700
X2.16200 Y0.52700
X2.16200 Y0.52600
X2.16300 Y0.52600
X2.16300 Y0.52400
X2.16400 Y0.52400
X2.16400 Y0.52300
X2.16500 Y0.52300
X2.16500 Y0.52100
X2.16600 Y0.52100
X2.16600 Y0.52000
X2.16700 Y0.52000
X2.16700 Y0.51900
X2.16800 Y0.51900
X2.16800 Y0.51700
X2.17000 Y0.51700
X2.17000 Y0.51600
X2.17200 Y0.51600
X2.17200 Y0.51500
X2.17300 Y0.51500
X2.17300 Y0.51400
X2.17500 Y0.51400
X2.17500 Y0.51300
X2.17700 Y0.51300
X2.17700 Y0.51200
X2.18000 Y0.51200
X2.18000 Y0.51100
X2.18600 Y0.51100
X2.18600 Y0.51000
X2.21300 Y0.51000
X2.21300 Y0.51100
X2.21900 Y0.51100
X2.21900 Y0.51200
X2.22200 Y0.51200
X2.22200 Y0.51300
X2.22400 Y0.51300
X2.22400 Y0.51400
X2.22600 Y0.51400
X2.22600 Y0.51500
X2.22700 Y0.51500
X2.22700 Y0.51600
X2.22900 Y0.51600
X2.22900 Y0.51700
X2.23100 Y0.51700
X2.23100 Y0.51900
X2.23200 Y0.51900
X2.23200 Y0.52000
X2.23300 Y0.52000
X2.23300 Y0.52100
X2.23400 Y0.52100
X2.23400 Y0.52300
X2.23500 Y0.52300
X2.23500 Y0.52400
X2.23600 Y0.52400
X2.23600 Y0.52600
X2.23700 Y0.52600
X2.23700 Y0.52700
X2.23800 Y0.52700
X2.23800 Y0.53200
X2.23900 Y0.53200
X2.23900 Y0.53700
X2.24000 Y0.53700
X2.24000 Y0.56400
X2.23900 Y0.56400
X2.23900 Y0.56900
X2.23800 Y0.56900
X2.23800 Y0.57400
X2.23700 Y0.57400
X2.23700 Y0.57500
X2.23600 Y0.57500
X2.23600 Y0.57700
X2.23500 Y0.57700
X2.23500 Y0.57800
X2.23400 Y0.57800
X2.23400 Y0.58000
X2.23300 Y0.58000
X2.23300 Y0.58100
X2.23200 Y0.58100
X2.23200 Y0.58200
X2.23100 Y0.58200
X2.23100 Y0.58400
X2.22900 Y0.58400
X2.22900 Y0.58500
X2.22700 Y0.58500
X2.22700 Y0.58600
X2.22500 Y0.58600
X2.22500 Y0.58700
X2.22400 Y0.58700
X2.22400 Y0.58800
X2.22200 Y0.58800
X2.22200 Y0.58900
X2.21900 Y0.58900
X2.21900 Y0.59000
X2.21300 Y0.59000
X2.21300 Y0.59100
X2.18600 Y0.59100
X2.18600 Y0.59000
X2.18000 Y0.59000
X2.18000 Y0.58900
X2.17700 Y0.58900
X2.17700 Y0.58800
X2.17500 Y0.58800
X2.17500 Y0.58700
X2.17400 Y0.58700
X2.17400 Y0.58600
X2.17200 Y0.58600
X2.17200 Y0.58500
X2.17000 Y0.58500
X2.17000 Y0.58400
X2.16800 Y0.58400
X2.16800 Y0.58200
X2.16700 Y0.58200
X2.16700 Y0.58100
X2.16600 Y0.58100
X2.16600 Y0.58000
G04 P0 ( dwell for no time -- G64 should not smooth over this point )
G00 Z0.19685 ( retract )

G00 X0.56600 Y0.58000 ( rapid move to begin. )
G01 Z-0.01969 F1.96850 ( plunge. )
G04 P0 ( dwell for no time -- G64 should not smooth over this point )
X0.56600 Y0.58000
X0.56500 Y0.58000
X0.56500 Y0.57800
X0.56400 Y0.57800
X0.56400 Y0.57700
X0.56300 Y0.57700
X0.56300 Y0.57500
X0.56200 Y0.57500
X0.56200 Y0.57400
X0.56100 Y0.57400
X0.56100 Y0.56900
X0.56000 Y0.56900
X0.56000 Y0.56400
X0.55900 Y0.56400
X0.55900 Y0.53700
X0.56000 Y0.53700
X0.56000 Y0.53200
X0.56100 Y0.53200
X0.56100 Y0.52700
X0.56200 Y0.52700
X0.56200 Y0.52600
X0.56300 Y0.52600
X0.56300 Y0.52400
X0.56400 Y0.52400
X0.56400 Y0.52300
X0.56500 Y0.52300
X0.56500 Y0.52100
X0.56600 Y0.52100
X0.56600 Y0.52000
X0.56700 Y0.52000
X0.56700 Y0.51900
X0.56800 Y0.51900
X0.56800 Y0.51700
X0.57000 Y0.51700
X0.57000 Y0.51600
X0.57200 Y0.51600
X0.57200 Y0.51500
X0.57300 Y0.51500
X0.57300 Y0.51400
X0.57500 Y0.51400
X0.57500 Y0.51300
X0.57700 Y0.51300
X0.57700 Y0.51200
X0.58000 Y0.51200
X0.58000 Y0.51100
X0.58600 Y0.51100
X0.58600 Y0.51000
X0.61300 Y0.51000
X0.61300 Y0.51100
X0.61900 Y0.51100
X0.61900 Y0.51200
X0.62200 Y0.51200
X0.62200 Y0.51300
X0.62400 Y0.51300
X0.62400 Y0.51400
X0.62600 Y0.51400
X0.62600 Y0.51500
X0.62700 Y0.51500
X0.62700 Y0.51600
X0.62900 Y0.51600
X0.62900 Y0.51700
X0.63100 Y0.51700
X0.63100 Y0.51900
X0.63200 Y0.51900
X0.63200 Y0.52000
X0.63300 Y0.52000
X0.63300 Y0.52100
X0.63400 Y0.52100
X0.63400 Y0.52300
X0.63500 Y0.52300
X0.63500 Y0.52400
X0.63600 Y0.52400
X0.63600 Y0.52600
X0.63700 Y0.52600
X0.63700 Y0.52700
X0.63800 Y0.52700
X0.63800 Y0.53200
X0.63900 Y0.53200
X0.63900 Y0.53700
X0.64000 Y0.53700
X0.64000 Y0.56400
X0.63900 Y0.56400
X0.63900 Y0.56900
X0.63800 Y0.56900
X0.63800 Y0.57400
X0.63700 Y0.57400
X0.63700 Y0.57500
X0.63600 Y0.57500
X0.63600 Y0.57700
X0.63500 Y0.57700
X0.63500 Y0.57800
X0.63400 Y0.57800
X0.63400 Y0.58000
X0.63300 Y0.58000
X0.63300 Y0.58100
X0.63200 Y0.58100
X0.63200 Y0.58200
X0.63100 Y0.58200
X0.63100 Y0.58400
X0.62900 Y0.58400
X0.62900 Y0.58500
X0.62700 Y0.58500
X0.62700 Y0.58600
X0.62500 Y0.58600
X0.62500 Y0.58700
X0.62400 Y0.58700
X0.62400 Y0.58800
X0.62200 Y0.58800
X0.62200 Y0.58900
X0.61900 Y0.58900
X0.61900 Y0.59000
X0.61300 Y0.59000
X0.61300 Y0.59100
X0.58600 Y0.59100
X0.58600 Y0.59000
X0.58000 Y0.59000
X0.58000 Y0.58900
X0.57700 Y0.58900
X0.57700 Y0.58800
X0.57500 Y0.58800
X0.57500 Y0.58700
X0.57400 Y0.58700
X0.57400 Y0.58600
X0.57200 Y0.58600
X0.57200 Y0.58500
X0.57000 Y0.58500
X0.57000 Y0.58400
X0.56800 Y0.58400
X0.56800 Y0.58200
X0.56700 Y0.58200
X0.56700 Y0.58100
X0.56600 Y0.58100
X0.56600 Y0.58000
G04 P0 ( dwell for no time -- G64 should not smooth over this point )
G00 Z0.19685 ( retract )

G00 X0.26600 Y0.58000 ( rapid move to begin. )
G01 Z-0.01969 F1.96850 ( plunge. )
G04 P0 ( dwell for no time -- G64 should not smooth over this point )
X0.26600 Y0.58000
X0.26500 Y0.58000
X0.26500 Y0.57800
X0.26400 Y0.57800
X0.26400 Y0.57700
X0.26300 Y0.57700
X0.26300 Y0.57500
X0.26200 Y0.57500
X0.26200 Y0.57400
X0.26100 Y0.57400
X0.26100 Y0.56900
X0.26000 Y0.56900
X0.26000 Y0.56400
X0.25900 Y0.56400
X0.25900 Y0.53700
X0.26000 Y0.53700
X0.26000 Y0.53200
X0.26100 Y0.53200
X0.26100 Y0.52700
X0.26200 Y0.52700
X0.26200 Y0.52600
X0.26300 Y0.52600
X0.26300 Y0.52400
X0.26400 Y0.52400
X0.26400 Y0.52300
X0.26500 Y0.52300
X0.26500 Y0.52100
X0.26600 Y0.52100
X0.26600 Y0.52000
X0.26700 Y0.52000
X0.26700 Y0.51900
X0.26800 Y0.51900
X0.26800 Y0.51700
X0.27000 Y0.51700
X0.27000 Y0.51600
X0.27200 Y0.51600
X0.27200 Y0.51500
X0.27300 Y0.51500
X0.27300 Y0.51400
X0.27500 Y0.51400
X0.27500 Y0.51300
X0.27700 Y0.51300
X0.27700 Y0.51200
X0.28000 Y0.51200
X0.28000 Y0.51100
X0.28600 Y0.51100
X0.28600 Y0.51000
X0.31300 Y0.51000
X0.31300 Y0.51100
X0.31900 Y0.51100
X0.31900 Y0.51200
X0.32200 Y0.51200
X0.32200 Y0.51300
X0.32400 Y0.51300
X0.32400 Y0.51400
X0.32600 Y0.51400
X0.32600 Y0.51500
X0.32700 Y0.51500
X0.32700 Y0.51600
X0.32900 Y0.51600
X0.32900 Y0.51700
X0.33100 Y0.51700
X0.33100 Y0.51900
X0.33200 Y0.51900
X0.33200 Y0.52000
X0.33300 Y0.52000
X0.33300 Y0.52100
X0.33400 Y0.52100
X0.33400 Y0.52300
X0.33500 Y0.52300
X0.33500 Y0.52400
X0.33600 Y0.52400
X0.33600 Y0.52600
X0.33700 Y0.52600
X0.33700 Y0.52700
X0.33800 Y0.52700
X0.33800 Y0.53200
X0.33900 Y0.53200
X0.33900 Y0.53700
X0.34000 Y0.53700
X0.34000 Y0.56400
X0.33900 Y0.56400
X0.33900 Y0.56900
X0.33800 Y0.56900
X0.33800 Y0.57400
X0.33700 Y0.57400
X0.33700 Y0.57500
X0.33600 Y0.57500
X0.33600 Y0.57700
X0.33500 Y0.57700
X0.33500 Y0.57800
X0.33400 Y0.57800
X0.33400 Y0.58000
X0.33300 Y0.58000
X0.33300 Y0.58100
X0.33200 Y0.58100
X0.33200 Y0.58200
X0.33100 Y0.58200
X0.33100 Y0.58400
X0.32900 Y0.58400
X0.32900 Y0.58500
X0.32700 Y0.58500
X0.32700 Y0.58600
X0.32500 Y0.58600
X0.32500 Y0.58700
X0.32400 Y0.58700
X0.32400 Y0.58800
X0.32200 Y0.58800
X0.32200 Y0.58900
X0.31900 Y0.58900
X0.31900 Y0.59000
X0.31300 Y0.59000
X0.31300 Y0.59100
X0.28600 Y0.59100
X0.28600 Y0.59000
X0.28000 Y0.59000
X0.28000 Y0.58900
X0.27700 Y0.58900
X0.27700 Y0.58800
X0.27500 Y0.58800
X0.27500 Y0.58700
X0.27400 Y0.58700
X0.27400 Y0.58600
X0.27200 Y0.58600
X0.27200 Y0.58500
X0.27000 Y0.58500
X0.27000 Y0.58400
X0.26800 Y0.58400
X0.26800 Y0.58200
X0.26700 Y0.58200
X0.26700 Y0.58100
X0.26600 Y0.58100
X0.26600 Y0.58000
G04 P0 ( dwell for no time -- G64 should not smooth over this point )
G00 Z0.19685 ( retract )

G00 X1.76700 Y0.57700 ( rapid move to begin. )
G01 Z-0.01969 F1.96850 ( plunge. )
G04 P0 ( dwell for no time -- G64 should not smooth over this point )
X1.76700 Y0.57700
X1.76600 Y0.57700
X1.76600 Y0.57500
X1.76500 Y0.57500
X1.76500 Y0.57400
X1.76400 Y0.57400
X1.76400 Y0.57100
X1.76300 Y0.57100
X1.76300 Y0.56600
X1.76200 Y0.56600
X1.76200 Y0.53500
X1.76300 Y0.53500
X1.76300 Y0.53000
X1.76400 Y0.53000
X1.76400 Y0.52700
X1.76500 Y0.52700
X1.76500 Y0.52600
X1.76600 Y0.52600
X1.76600 Y0.52400
X1.76700 Y0.52400
X1.76700 Y0.52300
X1.76800 Y0.52300
X1.76800 Y0.52200
X1.76900 Y0.52200
X1.76900 Y0.52000
X1.77000 Y0.52000
X1.77000 Y0.51900
X1.77200 Y0.51900
X1.77200 Y0.51800
X1.77300 Y0.51800
X1.77300 Y0.51700
X1.77500 Y0.51700
X1.77500 Y0.51600
X1.77700 Y0.51600
X1.77700 Y0.51500
X1.77800 Y0.51500
X1.77800 Y0.51400
X1.78300 Y0.51400
X1.78300 Y0.51300
X1.81600 Y0.51300
X1.81600 Y0.51400
X1.82100 Y0.51400
X1.82100 Y0.51500
X1.82200 Y0.51500
X1.82200 Y0.51600
X1.82400 Y0.51600
X1.82400 Y0.51700
X1.82600 Y0.51700
X1.82600 Y0.51800
X1.82700 Y0.51800
X1.82700 Y0.51900
X1.82900 Y0.51900
X1.82900 Y0.52000
X1.83000 Y0.52000
X1.83000 Y0.52200
X1.83100 Y0.52200
X1.83100 Y0.52300
X1.83200 Y0.52300
X1.83200 Y0.52400
X1.83300 Y0.52400
X1.83300 Y0.52600
X1.83400 Y0.52600
X1.83400 Y0.52700
X1.83500 Y0.52700
X1.83500 Y0.53000
X1.83600 Y0.53000
X1.83600 Y0.53500
X1.83700 Y0.53500
X1.83700 Y0.56600
X1.83600 Y0.56600
X1.83600 Y0.57100
X1.83500 Y0.57100
X1.83500 Y0.57400
X1.83400 Y0.57400
X1.83400 Y0.57500
X1.83300 Y0.57500
X1.83300 Y0.57700
X1.83200 Y0.57700
X1.83200 Y0.57800
X1.83100 Y0.57800
X1.83100 Y0.57900
X1.83000 Y0.57900
X1.83000 Y0.58100
X1.82900 Y0.58100
X1.82900 Y0.58200
X1.82700 Y0.58200
X1.82700 Y0.58300
X1.82600 Y0.58300
X1.82600 Y0.58400
X1.82400 Y0.58400
X1.82400 Y0.58500
X1.82200 Y0.58500
X1.82200 Y0.58600
X1.82100 Y0.58600
X1.82100 Y0.58700
X1.81600 Y0.58700
X1.81600 Y0.58800
X1.78300 Y0.58800
X1.78300 Y0.58700
X1.77800 Y0.58700
X1.77800 Y0.58600
X1.77700 Y0.58600
X1.77700 Y0.58500
X1.77500 Y0.58500
X1.77500 Y0.58400
X1.77300 Y0.58400
X1.77300 Y0.58300
X1.77200 Y0.58300
X1.77200 Y0.58200
X1.77000 Y0.58200
X1.77000 Y0.58100
X1.76900 Y0.58100
X1.76900 Y0.57900
X1.76800 Y0.57900
X1.76800 Y0.57800
X1.76700 Y0.57800
X1.76700 Y0.57700
G04 P0 ( dwell for no time -- G64 should not smooth over this point )
G00 Z0.19685 ( retract )

G00 X1.61200 Y0.57700 ( rapid move to begin. )
G01 Z-0.01969 F1.96850 ( plunge. )
G04 P0 ( dwell for no time -- G64 should not smooth over this point )
X1.61200 Y0.57700
X1.61200 Y0.51200
X1.68800 Y0.51200
X1.68800 Y0.58800
X1.61200 Y0.58800
X1.61200 Y0.57700
G04 P0 ( dwell for no time -- G64 should not smooth over this point )
G00 Z0.19685 ( retract )

G00 X1.21200 Y0.57700 ( rapid move to begin. )
G01 Z-0.01969 F1.96850 ( plunge. )
G04 P0 ( dwell for no time -- G64 should not smooth over this point )
X1.21200 Y0.57700
X1.21200 Y0.51200
X1.28800 Y0.51200
X1.28800 Y0.58800
X1.21200 Y0.58800
X1.21200 Y0.57700
G04 P0 ( dwell for no time -- G64 should not smooth over this point )
G00 Z0.19685 ( retract )

G00 X1.11200 Y0.57700 ( rapid move to begin. )
G01 Z-0.01969 F1.96850 ( plunge. )
G04 P0 ( dwell for no time -- G64 should not smooth over this point )
X1.11200 Y0.57700
X1.11200 Y0.51200
X1.18800 Y0.51200
X1.18800 Y0.58800
X1.11200 Y0.58800
X1.11200 Y0.57700
G04 P0 ( dwell for no time -- G64 should not smooth over this point )
G00 Z0.19685 ( retract )

G00 X0.86600 Y0.53000 ( rapid move to begin. )
G01 Z-0.01969 F1.96850 ( plunge. )
G04 P0 ( dwell for no time -- G64 should not smooth over this point )
X0.86600 Y0.53000
X0.86500 Y0.53000
X0.86500 Y0.52800
X0.86400 Y0.52800
X0.86400 Y0.52700
X0.86300 Y0.52700
X0.86300 Y0.52500
X0.86200 Y0.52500
X0.86200 Y0.52400
X0.86100 Y0.52400
X0.86100 Y0.51900
X0.86000 Y0.51900
X0.86000 Y0.51400
X0.85900 Y0.51400
X0.85900 Y0.48700
X0.86000 Y0.48700
X0.86000 Y0.48200
X0.86100 Y0.48200
X0.86100 Y0.47700
X0.86200 Y0.47700
X0.86200 Y0.47600
X0.86300 Y0.47600
X0.86300 Y0.47400
X0.86400 Y0.47400
X0.86400 Y0.47300
X0.86500 Y0.47300
X0.86500 Y0.47100
X0.86600 Y0.47100
X0.86600 Y0.47000
X0.86700 Y0.47000
X0.86700 Y0.46900
X0.86800 Y0.46900
X0.86800 Y0.46700
X0.87000 Y0.46700
X0.87000 Y0.46600
X0.87200 Y0.46600
X0.87200 Y0.46500
X0.87300 Y0.46500
X0.87300 Y0.46400
X0.87500 Y0.46400
X0.87500 Y0.46300
X0.87700 Y0.46300
X0.87700 Y0.46200
X0.88000 Y0.46200
X0.88000 Y0.46100
X0.88600 Y0.46100
X0.88600 Y0.46000
X0.91300 Y0.46000
X0.91300 Y0.46100
X0.91900 Y0.46100
X0.91900 Y0.46200
X0.92200 Y0.46200
X0.92200 Y0.46300
X0.92400 Y0.46300
X0.92400 Y0.46400
X0.92600 Y0.46400
X0.92600 Y0.46500
X0.92700 Y0.46500
X0.92700 Y0.46600
X0.92900 Y0.46600
X0.92900 Y0.46700
X0.93100 Y0.46700
X0.93100 Y0.46900
X0.93200 Y0.46900
X0.93200 Y0.47000
X0.93300 Y0.47000
X0.93300 Y0.47100
X0.93400 Y0.47100
X0.93400 Y0.47300
X0.93500 Y0.47300
X0.93500 Y0.47400
X0.93600 Y0.47400
X0.93600 Y0.47600
X0.93700 Y0.47600
X0.93700 Y0.47700
X0.93800 Y0.47700
X0.93800 Y0.48200
X0.93900 Y0.48200
X0.93900 Y0.48700
X0.94000 Y0.48700
X0.94000 Y0.51400
X0.93900 Y0.51400
X0.93900 Y0.51900
X0.93800 Y0.51900
X0.93800 Y0.52400
X0.93700 Y0.52400
X0.93700 Y0.52500
X0.93600 Y0.52500
X0.93600 Y0.52700
X0.93500 Y0.52700
X0.93500 Y0.52800
X0.93400 Y0.52800
X0.93400 Y0.53000
X0.93300 Y0.53000
X0.93300 Y0.53100
X0.93200 Y0.53100
X0.93200 Y0.53200
X0.93100 Y0.53200
X0.93100 Y0.53400
X0.92900 Y0.53400
X0.92900 Y0.53500
X0.92700 Y0.53500
X0.92700 Y0.53600
X0.92500 Y0.53600
X0.92500 Y0.53700
X0.92400 Y0.53700
X0.92400 Y0.53800
X0.92200 Y0.53800
X0.92200 Y0.53900
X0.91900 Y0.53900
X0.91900 Y0.54000
X0.91300 Y0.54000
X0.91300 Y0.54100
X0.88600 Y0.54100
X0.88600 Y0.54000
X0.88000 Y0.54000
X0.88000 Y0.53900
X0.87700 Y0.53900
X0.87700 Y0.53800
X0.87500 Y0.53800
X0.87500 Y0.53700
X0.87400 Y0.53700
X0.87400 Y0.53600
X0.87200 Y0.53600
X0.87200 Y0.53500
X0.87000 Y0.53500
X0.87000 Y0.53400
X0.86800 Y0.53400
X0.86800 Y0.53200
X0.86700 Y0.53200
X0.86700 Y0.53100
X0.86600 Y0.53100
X0.86600 Y0.53000
G04 P0 ( dwell for no time -- G64 should not smooth over this point )
G00 Z0.19685 ( retract )

G00 X0.75900 Y0.53000 ( rapid move to begin. )
G01 Z-0.01969 F1.96850 ( plunge. )
G04 P0 ( dwell for no time -- G64 should not smooth over this point )
X0.75900 Y0.53000
X0.75900 Y0.46000
X0.84000 Y0.46000
X0.84000 Y0.54100
X0.75900 Y0.54100
X0.75900 Y0.53000
G04 P0 ( dwell for no time -- G64 should not smooth over this point )
G00 Z0.19685 ( retract )

G00 X1.21700 Y0.47700 ( rapid move to begin. )
G01 Z-0.01969 F1.96850 ( plunge. )
G04 P0 ( dwell for no time -- G64 should not smooth over this point )
X1.21700 Y0.47700
X1.21600 Y0.47700
X1.21600 Y0.47500
X1.21500 Y0.47500
X1.21500 Y0.47400
X1.21400 Y0.47400
X1.21400 Y0.47100
X1.21300 Y0.47100
X1.21300 Y0.46600
X1.21200 Y0.46600
X1.21200 Y0.43500
X1.21300 Y0.43500
X1.21300 Y0.43000
X1.21400 Y0.43000
X1.21400 Y0.42700
X1.21500 Y0.42700
X1.21500 Y0.42600
X1.21600 Y0.42600
X1.21600 Y0.42400
X1.21700 Y0.42400
X1.21700 Y0.42300
X1.21800 Y0.42300
X1.21800 Y0.42200
X1.21900 Y0.42200
X1.21900 Y0.42000
X1.22000 Y0.42000
X1.22000 Y0.41900
X1.22200 Y0.41900
X1.22200 Y0.41800
X1.22300 Y0.41800
X1.22300 Y0.41700
X1.22500 Y0.41700
X1.22500 Y0.41600
X1.22700 Y0.41600
X1.22700 Y0.41500
X1.22800 Y0.41500
X1.22800 Y0.41400
X1.23300 Y0.41400
X1.23300 Y0.41300
X1.26600 Y0.41300
X1.26600 Y0.41400
X1.27100 Y0.41400
X1.27100 Y0.41500
X1.27200 Y0.41500
X1.27200 Y0.41600
X1.27400 Y0.41600
X1.27400 Y0.41700
X1.27600 Y0.41700
X1.27600 Y0.41800
X1.27700 Y0.41800
X1.27700 Y0.41900
X1.27900 Y0.41900
X1.27900 Y0.42000
X1.28000 Y0.42000
X1.28000 Y0.42200
X1.28100 Y0.42200
X1.28100 Y0.42300
X1.28200 Y0.42300
X1.28200 Y0.42400
X1.28300 Y0.42400
X1.28300 Y0.42600
X1.28400 Y0.42600
X1.28400 Y0.42700
X1.28500 Y0.42700
X1.28500 Y0.43000
X1.28600 Y0.43000
X1.28600 Y0.43500
X1.28700 Y0.43500
X1.28700 Y0.46600
X1.28600 Y0.46600
X1.28600 Y0.47100
X1.28500 Y0.47100
X1.28500 Y0.47400
X1.28400 Y0.47400
X1.28400 Y0.47500
X1.28300 Y0.47500
X1.28300 Y0.47700
X1.28200 Y0.47700
X1.28200 Y0.47800
X1.28100 Y0.47800
X1.28100 Y0.47900
X1.28000 Y0.47900
X1.28000 Y0.48100
X1.27900 Y0.48100
X1.27900 Y0.48200
X1.27700 Y0.48200
X1.27700 Y0.48300
X1.27600 Y0.48300
X1.27600 Y0.48400
X1.27400 Y0.48400
X1.27400 Y0.48500
X1.27200 Y0.48500
X1.27200 Y0.48600
X1.27100 Y0.48600
X1.27100 Y0.48700
X1.26600 Y0.48700
X1.26600 Y0.48800
X1.23300 Y0.48800
X1.23300 Y0.48700
X1.22800 Y0.48700
X1.22800 Y0.48600
X1.22700 Y0.48600
X1.22700 Y0.48500
X1.22500 Y0.48500
X1.22500 Y0.48400
X1.22300 Y0.48400
X1.22300 Y0.48300
X1.22200 Y0.48300
X1.22200 Y0.48200
X1.22000 Y0.48200
X1.22000 Y0.48100
X1.21900 Y0.48100
X1.21900 Y0.47900
X1.21800 Y0.47900
X1.21800 Y0.47800
X1.21700 Y0.47800
X1.21700 Y0.47700
G04 P0 ( dwell for no time -- G64 should not smooth over this point )
G00 Z0.19685 ( retract )

G00 X1.11700 Y0.47700 ( rapid move to begin. )
G01 Z-0.01969 F1.96850 ( plunge. )
G04 P0 ( dwell for no time -- G64 should not smooth over this point )
X1.11700 Y0.47700
X1.11600 Y0.47700
X1.11600 Y0.47500
X1.11500 Y0.47500
X1.11500 Y0.47400
X1.11400 Y0.47400
X1.11400 Y0.47100
X1.11300 Y0.47100
X1.11300 Y0.46600
X1.11200 Y0.46600
X1.11200 Y0.43500
X1.11300 Y0.43500
X1.11300 Y0.43000
X1.11400 Y0.43000
X1.11400 Y0.42700
X1.11500 Y0.42700
X1.11500 Y0.42600
X1.11600 Y0.42600
X1.11600 Y0.42400
X1.11700 Y0.42400
X1.11700 Y0.42300
X1.11800 Y0.42300
X1.11800 Y0.42200
X1.11900 Y0.42200
X1.11900 Y0.42000
X1.12000 Y0.42000
X1.12000 Y0.41900
X1.12200 Y0.41900
X1.12200 Y0.41800
X1.12300 Y0.41800
X1.12300 Y0.41700
X1.12500 Y0.41700
X1.12500 Y0.41600
X1.12700 Y0.41600
X1.12700 Y0.41500
X1.12800 Y0.41500
X1.12800 Y0.41400
X1.13300 Y0.41400
X1.13300 Y0.41300
X1.16600 Y0.41300
X1.16600 Y0.41400
X1.17100 Y0.41400
X1.17100 Y0.41500
X1.17200 Y0.41500
X1.17200 Y0.41600
X1.17400 Y0.41600
X1.17400 Y0.41700
X1.17600 Y0.41700
X1.17600 Y0.41800
X1.17700 Y0.41800
X1.17700 Y0.41900
X1.17900 Y0.41900
X1.17900 Y0.42000
X1.18000 Y0.42000
X1.18000 Y0.42200
X1.18100 Y0.42200
X1.18100 Y0.42300
X1.18200 Y0.42300
X1.18200 Y0.42400
X1.18300 Y0.42400
X1.18300 Y0.42600
X1.18400 Y0.42600
X1.18400 Y0.42700
X1.18500 Y0.42700
X1.18500 Y0.43000
X1.18600 Y0.43000
X1.18600 Y0.43500
X1.18700 Y0.43500
X1.18700 Y0.46600
X1.18600 Y0.46600
X1.18600 Y0.47100
X1.18500 Y0.47100
X1.18500 Y0.47400
X1.18400 Y0.47400
X1.18400 Y0.47500
X1.18300 Y0.47500
X1.18300 Y0.47700
X1.18200 Y0.47700
X1.18200 Y0.47800
X1.18100 Y0.47800
X1.18100 Y0.47900
X1.18000 Y0.47900
X1.18000 Y0.48100
X1.17900 Y0.48100
X1.17900 Y0.48200
X1.17700 Y0.48200
X1.17700 Y0.48300
X1.17600 Y0.48300
X1.17600 Y0.48400
X1.17400 Y0.48400
X1.17400 Y0.48500
X1.17200 Y0.48500
X1.17200 Y0.48600
X1.17100 Y0.48600
X1.17100 Y0.48700
X1.16600 Y0.48700
X1.16600 Y0.48800
X1.13300 Y0.48800
X1.13300 Y0.48700
X1.12800 Y0.48700
X1.12800 Y0.48600
X1.12700 Y0.48600
X1.12700 Y0.48500
X1.12500 Y0.48500
X1.12500 Y0.48400
X1.12300 Y0.48400
X1.12300 Y0.48300
X1.12200 Y0.48300
X1.12200 Y0.48200
X1.12000 Y0.48200
X1.12000 Y0.48100
X1.11900 Y0.48100
X1.11900 Y0.47900
X1.11800 Y0.47900
X1.11800 Y0.47800
X1.11700 Y0.47800
X1.11700 Y0.47700
G04 P0 ( dwell for no time -- G64 should not smooth over this point )
G00 Z0.19685 ( retract )

G00 X0.06200 Y0.47700 ( rapid move to begin. )
G01 Z-0.01969 F1.96850 ( plunge. )
G04 P0 ( dwell for no time -- G64 should not smooth over this point )
X0.06200 Y0.47700
X0.06200 Y0.41200
X0.13800 Y0.41200
X0.13800 Y0.48800
X0.06200 Y0.48800
X0.06200 Y0.47700
G04 P0 ( dwell for no time -- G64 should not smooth over this point )
G00 Z0.19685 ( retract )

G00 X1.71600 Y0.43000 ( rapid move to begin. )
G01 Z-0.01969 F1.96850 ( plunge. )
G04 P0 ( dwell for no time -- G64 should not smooth over this point )
X1.71600 Y0.43000
X1.71500 Y0.43000
X1.71500 Y0.42800
X1.71400 Y0.42800
X1.71400 Y0.42700
X1.71300 Y0.42700
X1.71300 Y0.42500
X1.71200 Y0.42500
X1.71200 Y0.42400
X1.71100 Y0.42400
X1.71100 Y0.41900
X1.71000 Y0.41900
X1.71000 Y0.41400
X1.70900 Y0.41400
X1.70900 Y0.38700
X1.71000 Y0.38700
X1.71000 Y0.38200
X1.71100 Y0.38200
X1.71100 Y0.37700
X1.71200 Y0.37700
X1.71200 Y0.37600
X1.71300 Y0.37600
X1.71300 Y0.37400
X1.71400 Y0.37400
X1.71400 Y0.37300
X1.71500 Y0.37300
X1.71500 Y0.37100
X1.71600 Y0.37100
X1.71600 Y0.37000
X1.71700 Y0.37000
X1.71700 Y0.36900
X1.71800 Y0.36900
X1.71800 Y0.36700
X1.72000 Y0.36700
X1.72000 Y0.36600
X1.72200 Y0.36600
X1.72200 Y0.36500
X1.72300 Y0.36500
X1.72300 Y0.36400
X1.72500 Y0.36400
X1.72500 Y0.36300
X1.72700 Y0.36300
X1.72700 Y0.36200
X1.73000 Y0.36200
X1.73000 Y0.36100
X1.73600 Y0.36100
X1.73600 Y0.36000
X1.76300 Y0.36000
X1.76300 Y0.36100
X1.76900 Y0.36100
X1.76900 Y0.36200
X1.77200 Y0.36200
X1.77200 Y0.36300
X1.77400 Y0.36300
X1.77400 Y0.36400
X1.77600 Y0.36400
X1.77600 Y0.36500
X1.77700 Y0.36500
X1.77700 Y0.36600
X1.77900 Y0.36600
X1.77900 Y0.36700
X1.78100 Y0.36700
X1.78100 Y0.36900
X1.78200 Y0.36900
X1.78200 Y0.37000
X1.78300 Y0.37000
X1.78300 Y0.37100
X1.78400 Y0.37100
X1.78400 Y0.37300
X1.78500 Y0.37300
X1.78500 Y0.37400
X1.78600 Y0.37400
X1.78600 Y0.37600
X1.78700 Y0.37600
X1.78700 Y0.37700
X1.78800 Y0.37700
X1.78800 Y0.38200
X1.78900 Y0.38200
X1.78900 Y0.38700
X1.79000 Y0.38700
X1.79000 Y0.41400
X1.78900 Y0.41400
X1.78900 Y0.41900
X1.78800 Y0.41900
X1.78800 Y0.42400
X1.78700 Y0.42400
X1.78700 Y0.42500
X1.78600 Y0.42500
X1.78600 Y0.42700
X1.78500 Y0.42700
X1.78500 Y0.42800
X1.78400 Y0.42800
X1.78400 Y0.43000
X1.78300 Y0.43000
X1.78300 Y0.43100
X1.78200 Y0.43100
X1.78200 Y0.43200
X1.78100 Y0.43200
X1.78100 Y0.43400
X1.77900 Y0.43400
X1.77900 Y0.43500
X1.77700 Y0.43500
X1.77700 Y0.43600
X1.77500 Y0.43600
X1.77500 Y0.43700
X1.77400 Y0.43700
X1.77400 Y0.43800
X1.77200 Y0.43800
X1.77200 Y0.43900
X1.76900 Y0.43900
X1.76900 Y0.44000
X1.76300 Y0.44000
X1.76300 Y0.44100
X1.73600 Y0.44100
X1.73600 Y0.44000
X1.73000 Y0.44000
X1.73000 Y0.43900
X1.72700 Y0.43900
X1.72700 Y0.43800
X1.72500 Y0.43800
X1.72500 Y0.43700
X1.72400 Y0.43700
X1.72400 Y0.43600
X1.72200 Y0.43600
X1.72200 Y0.43500
X1.72000 Y0.43500
X1.72000 Y0.43400
X1.71800 Y0.43400
X1.71800 Y0.43200
X1.71700 Y0.43200
X1.71700 Y0.43100
X1.71600 Y0.43100
X1.71600 Y0.43000
G04 P0 ( dwell for no time -- G64 should not smooth over this point )
G00 Z0.19685 ( retract )

G00 X1.60900 Y0.43000 ( rapid move to begin. )
G01 Z-0.01969 F1.96850 ( plunge. )
G04 P0 ( dwell for no time -- G64 should not smooth over this point )
X1.60900 Y0.43000
X1.60900 Y0.36000
X1.69000 Y0.36000
X1.69000 Y0.44100
X1.60900 Y0.44100
X1.60900 Y0.43000
G04 P0 ( dwell for no time -- G64 should not smooth over this point )
G00 Z0.19685 ( retract )

G00 X2.16200 Y0.42700 ( rapid move to begin. )
G01 Z-0.01969 F1.96850 ( plunge. )
G04 P0 ( dwell for no time -- G64 should not smooth over this point )
X2.16200 Y0.42700
X2.16200 Y0.36200
X2.23800 Y0.36200
X2.23800 Y0.43800
X2.16200 Y0.43800
X2.16200 Y0.42700
G04 P0 ( dwell for no time -- G64 should not smooth over this point )
G00 Z0.19685 ( retract )

G00 X1.86700 Y0.42700 ( rapid move to begin. )
G01 Z-0.01969 F1.96850 ( plunge. )
G04 P0 ( dwell for no time -- G64 should not smooth over this point )
X1.86700 Y0.42700
X1.86600 Y0.42700
X1.86600 Y0.42500
X1.86500 Y0.42500
X1.86500 Y0.42400
X1.86400 Y0.42400
X1.86400 Y0.42100
X1.86300 Y0.42100
X1.86300 Y0.41600
X1.86200 Y0.41600
X1.86200 Y0.38500
X1.86300 Y0.38500
X1.86300 Y0.38000
X1.86400 Y0.38000
X1.86400 Y0.37700
X1.86500 Y0.37700
X1.86500 Y0.37600
X1.86600 Y0.37600
X1.86600 Y0.37400
X1.86700 Y0.37400
X1.86700 Y0.37300
X1.86800 Y0.37300
X1.86800 Y0.37200
X1.86900 Y0.37200
X1.86900 Y0.37000
X1.87000 Y0.37000
X1.87000 Y0.36900
X1.87200 Y0.36900
X1.87200 Y0.36800
X1.87300 Y0.36800
X1.87300 Y0.36700
X1.87500 Y0.36700
X1.87500 Y0.36600
X1.87700 Y0.36600
X1.87700 Y0.36500
X1.87800 Y0.36500
X1.87800 Y0.36400
X1.88300 Y0.36400
X1.88300 Y0.36300
X1.91600 Y0.36300
X1.91600 Y0.36400
X1.92100 Y0.36400
X1.92100 Y0.36500
X1.92200 Y0.36500
X1.92200 Y0.36600
X1.92400 Y0.36600
X1.92400 Y0.36700
X1.92600 Y0.36700
X1.92600 Y0.36800
X1.92700 Y0.36800
X1.92700 Y0.36900
X1.92900 Y0.36900
X1.92900 Y0.37000
X1.93000 Y0.37000
X1.93000 Y0.37200
X1.93100 Y0.37200
X1.93100 Y0.37300
X1.93200 Y0.37300
X1.93200 Y0.37400
X1.93300 Y0.37400
X1.93300 Y0.37600
X1.93400 Y0.37600
X1.93400 Y0.37700
X1.93500 Y0.37700
X1.93500 Y0.38000
X1.93600 Y0.38000
X1.93600 Y0.38500
X1.93700 Y0.38500
X1.93700 Y0.41600
X1.93600 Y0.41600
X1.93600 Y0.42100
X1.93500 Y0.42100
X1.93500 Y0.42400
X1.93400 Y0.42400
X1.93400 Y0.42500
X1.93300 Y0.42500
X1.93300 Y0.42700
X1.93200 Y0.42700
X1.93200 Y0.42800
X1.93100 Y0.42800
X1.93100 Y0.42900
X1.93000 Y0.42900
X1.93000 Y0.43100
X1.92900 Y0.43100
X1.92900 Y0.43200
X1.92700 Y0.43200
X1.92700 Y0.43300
X1.92600 Y0.43300
X1.92600 Y0.43400
X1.92400 Y0.43400
X1.92400 Y0.43500
X1.92200 Y0.43500
X1.92200 Y0.43600
X1.92100 Y0.43600
X1.92100 Y0.43700
X1.91600 Y0.43700
X1.91600 Y0.43800
X1.88300 Y0.43800
X1.88300 Y0.43700
X1.87800 Y0.43700
X1.87800 Y0.43600
X1.87700 Y0.43600
X1.87700 Y0.43500
X1.87500 Y0.43500
X1.87500 Y0.43400
X1.87300 Y0.43400
X1.87300 Y0.43300
X1.87200 Y0.43300
X1.87200 Y0.43200
X1.87000 Y0.43200
X1.87000 Y0.43100
X1.86900 Y0.43100
X1.86900 Y0.42900
X1.86800 Y0.42900
X1.86800 Y0.42800
X1.86700 Y0.42800
X1.86700 Y0.42700
G04 P0 ( dwell for no time -- G64 should not smooth over this point )
G00 Z0.19685 ( retract )

G00 X1.46700 Y0.42700 ( rapid move to begin. )
G01 Z-0.01969 F1.96850 ( plunge. )
G04 P0 ( dwell for no time -- G64 should not smooth over this point )
X1.46700 Y0.42700
X1.46600 Y0.42700
X1.46600 Y0.42500
X1.46500 Y0.42500
X1.46500 Y0.42400
X1.46400 Y0.42400
X1.46400 Y0.42100
X1.46300 Y0.42100
X1.46300 Y0.41600
X1.46200 Y0.41600
X1.46200 Y0.38500
X1.46300 Y0.38500
X1.46300 Y0.38000
X1.46400 Y0.38000
X1.46400 Y0.37700
X1.46500 Y0.37700
X1.46500 Y0.37600
X1.46600 Y0.37600
X1.46600 Y0.37400
X1.46700 Y0.37400
X1.46700 Y0.37300
X1.46800 Y0.37300
X1.46800 Y0.37200
X1.46900 Y0.37200
X1.46900 Y0.37000
X1.47000 Y0.37000
X1.47000 Y0.36900
X1.47200 Y0.36900
X1.47200 Y0.36800
X1.47300 Y0.36800
X1.47300 Y0.36700
X1.47500 Y0.36700
X1.47500 Y0.36600
X1.47700 Y0.36600
X1.47700 Y0.36500
X1.47800 Y0.36500
X1.47800 Y0.36400
X1.48300 Y0.36400
X1.48300 Y0.36300
X1.51600 Y0.36300
X1.51600 Y0.36400
X1.52100 Y0.36400
X1.52100 Y0.36500
X1.52200 Y0.36500
X1.52200 Y0.36600
X1.52400 Y0.36600
X1.52400 Y0.36700
X1.52600 Y0.36700
X1.52600 Y0.36800
X1.52700 Y0.36800
X1.52700 Y0.36900
X1.52900 Y0.36900
X1.52900 Y0.37000
X1.53000 Y0.37000
X1.53000 Y0.37200
X1.53100 Y0.37200
X1.53100 Y0.37300
X1.53200 Y0.37300
X1.53200 Y0.37400
X1.53300 Y0.37400
X1.53300 Y0.37600
X1.53400 Y0.37600
X1.53400 Y0.37700
X1.53500 Y0.37700
X1.53500 Y0.38000
X1.53600 Y0.38000
X1.53600 Y0.38500
X1.53700 Y0.38500
X1.53700 Y0.41600
X1.53600 Y0.41600
X1.53600 Y0.42100
X1.53500 Y0.42100
X1.53500 Y0.42400
X1.53400 Y0.42400
X1.53400 Y0.42500
X1.53300 Y0.42500
X1.53300 Y0.42700
X1.53200 Y0.42700
X1.53200 Y0.42800
X1.53100 Y0.42800
X1.53100 Y0.42900
X1.53000 Y0.42900
X1.53000 Y0.43100
X1.52900 Y0.43100
X1.52900 Y0.43200
X1.52700 Y0.43200
X1.52700 Y0.43300
X1.52600 Y0.43300
X1.52600 Y0.43400
X1.52400 Y0.43400
X1.52400 Y0.43500
X1.52200 Y0.43500
X1.52200 Y0.43600
X1.52100 Y0.43600
X1.52100 Y0.43700
X1.51600 Y0.43700
X1.51600 Y0.43800
X1.48300 Y0.43800
X1.48300 Y0.43700
X1.47800 Y0.43700
X1.47800 Y0.43600
X1.47700 Y0.43600
X1.47700 Y0.43500
X1.47500 Y0.43500
X1.47500 Y0.43400
X1.47300 Y0.43400
X1.47300 Y0.43300
X1.47200 Y0.43300
X1.47200 Y0.43200
X1.47000 Y0.43200
X1.47000 Y0.43100
X1.46900 Y0.43100
X1.46900 Y0.42900
X1.46800 Y0.42900
X1.46800 Y0.42800
X1.46700 Y0.42800
X1.46700 Y0.42700
G04 P0 ( dwell for no time -- G64 should not smooth over this point )
G00 Z0.19685 ( retract )

G00 X0.56200 Y0.42700 ( rapid move to begin. )
G01 Z-0.01969 F1.96850 ( plunge. )
G04 P0 ( dwell for no time -- G64 should not smooth over this point )
X0.56200 Y0.42700
X0.56200 Y0.36200
X0.63800 Y0.36200
X0.63800 Y0.43800
X0.56200 Y0.43800
X0.56200 Y0.42700
G04 P0 ( dwell for no time -- G64 should not smooth over this point )
G00 Z0.19685 ( retract )

G00 X0.16700 Y0.42700 ( rapid move to begin. )
G01 Z-0.01969 F1.96850 ( plunge. )
G04 P0 ( dwell for no time -- G64 should not smooth over this point )
X0.16700 Y0.42700
X0.16600 Y0.42700
X0.16600 Y0.42500
X0.16500 Y0.42500
